!!!!SEGMENT: pl-cz--iii-105--001-005_dankowski-adalbert--missa-d-cum-sancto.krn
!!!cenid: 18xx:745
!!!COM: Dankowski, Adalbert
!!!COM-rismID: pe30000793
!!!CDT: ~1760-~1836
!!!CNT: Polish
!!!OPR: Missa D
!!!OTL: Cum Sancto
!!!OMV: 005
!!!PDT:
!!!AGN: Sacred; Mass
!!!YEC: Copyright 2022 Narodowy Instytut Fryderyka Chopina (https://polishscores.org)
!!!YEM: License CC-BY-4.0 (https://creativecommons.org/licenses/by/4.0)
!!!SMS-siglum: PL-CZ
!!!SMS-shelfmark: III-105
!!!SMS-shelfwork: 001-005 M
!!!SMS-variant:
!!!SMS-altvar:
!!!NIFC-rismSourceID: 300000109
!!!NIFC-rismChildID: 300000109
!!!NIFC-islandoraID: pl-cz:34145
!!!URL-pdf-islandora: https://repozytorium.nifc.pl/islandora/object/pl-cz%3A34145/datastream/PDF/view
!!!URL-scan: https://polish.musicsources.pl/pl/lokalizacje/galeria/rekopisy/6823/1 @EN{Scan on Polish Music Sources Website} @PL{Skany w portalu Dziedzictwo Muzyki Polskiej w otwartym dostępie}
!!!IIIF:
!!!ONB-nifc: UWAGA: części Mszy: Kyrie, Gloria, Qui tollis, Quoniam, Cum Sancto, Patrem, Et resurrexit, Sanctus, Benedictus, Agnus Dei, Dona nobis
!!!AIN: 1 alto 1 bass 2 clars 2 cor 2 oboe 1 organ 1 soprn 1 tenor 1 timpa 1 viola 2 violn
!!!OMD:
!!!OMD-mod: Adagio
!!!key: D
**kern	**fba	**kern	**dynam	**kern	**dynam	**kern	**dynam	**kern	**text	**kern	**text	**kern	**text	**kern	**text	**kern	**dynam	**kern	**kern	**kern	**kern	**kern	**kern
*	*	*group4	*	*group4	*	*group4	*	*group3	*	*group3	*	*group3	*	*group3	*	*	*	*group2	*group2	*group1	*group1	*group1	*group1
*part15	*	*part14	*	*part13	*	*part12	*	*part11	*	*part10	*	*part9	*	*part8	*	*part7	*	*part6	*part5	*part4	*part3	*part2	*part1
*staff15	*	*staff14	*	*staff13	*	*staff12	*	*staff11	*	*staff10	*	*staff9	*	*staff8	*	*staff7	*	*staff6	*staff5	*staff4	*staff3	*staff2	*staff1
*I"Organo	*	*I"Viola Obligatto	*	*I"Violino Secundo	*	*I"Violino Primo	*	*I"Baſso	*	*I"Tenore	*	*I"Alto.	*	*I"Canto	*	*I"Timpano do D. A.	*	*I"Cornu Secundo ex D	*I"Cornu Primo ex D	*I"Clarinetto Secundo Ex A:	*I"Clarinetto Primo Ex A:	*I"Oboe Secundo Oblig:	*I"Oboe Primo Oblig:
*	*	*mI"Viola	*	*mI"Violino II	*	*mI"Violino I	*	*mI"Basso	*	*	*	*mI"Alto	*	*mI"Soprano	*	*mI"Timpani in D | A	*	*mI"Corno II in D	*mI"Corno I in D	*mI"Clarinetto II in A	*mI"Clarinetto I in A	*mI"Oboe II	*mI"Oboe I
*I'org	*	*I'vla	*	*I'vl 2	*	*I'vl 1	*	*I'B	*	*I'T	*	*I'A	*	*I'S	*	*I'timp	*	*I'cor 2 in D	*I'cor 1 in D	*I'cl 2 in A	*I'cl 1 in A	*I'ob 2	*I'ob 1
*Iorgan	*	*Iviola	*	*Ivioln	*	*Ivioln	*	*Ibass	*	*Itenor	*	*Ialto	*	*Isoprn	*	*Itimpa	*	*Icor	*Icor	*Iclars	*Iclars	*Ioboe	*Ioboe
*ICklav	*	*ICstr	*	*ICstr	*	*ICstr	*	*ICvox	*	*ICvox	*	*ICvox	*	*ICvox	*	*ICidio	*	*ICbras	*ICbras	*ICww	*ICww	*ICww	*ICww
*IGcont	*	*	*	*	*	*	*	*IGcoro	*	*IGcoro	*	*IGcoro	*	*IGcoro	*	*IGacmp	*	*	*	*	*	*	*
*clefF4	*	*clefC3	*	*clefG2	*	*clefG2	*	*clefF4	*	*clefC4	*	*clefC3	*	*clefC1	*	*clefF4	*	*clefG2	*clefG2	*clefG2	*clefG2	*clefG2	*clefG2
*	*	*	*	*	*	*	*	*	*	*mclefGv2	*	*mclefG2	*	*mclefG2	*	*	*	*	*	*	*	*	*
*	*	*	*	*	*	*	*	*	*	*	*	*	*	*	*	*	*	*ITrd6c10	*ITrd6c10	*ITrd2c3	*ITrd2c3	*	*
*k[f#c#]	*	*k[f#c#]	*	*k[f#c#]	*	*k[f#c#]	*	*k[f#c#]	*	*k[f#c#]	*	*k[f#c#]	*	*k[f#c#]	*	*k[f#c#]	*	*k[f#c#]	*k[f#c#]	*k[f#c#]	*k[f#c#]	*k[f#c#]	*k[f#c#]
*D:	*	*D:	*	*D:	*	*D:	*	*D:	*	*D:	*	*D:	*	*D:	*	*D:	*	*D:	*D:	*D:	*D:	*D:	*D:
*M3/4	*	*M3/4	*	*M3/4	*	*M3/4	*	*M3/4	*	*M3/4	*	*M3/4	*	*M3/4	*	*M3/4	*	*M3/4	*M3/4	*M3/4	*M3/4	*M3/4	*M3/4
=1	=1	=1	=1	=1	=1	=1	=1	=1	=1	=1	=1	=1	=1	=1	=1	=1	=1	=1	=1	=1	=1	=1	=1
*	*	*	*	*	*	*	*	*	*	*	*	*	*	*	*	*tremolo	*	*	*	*	*	*	*
!!LO:TX:a:t= :mod=Tutti
!LO:TX:a:i:t=tutti:mod=	!	!	!	!	!	!	!	!	!	!	!	!	!	!	!	!LO:TX:t=P:global:problem=falująca linia nad tremolo	!	!	!	!	!LO:TX:t=P:problem=przy kluczu błędne oznaczenie metryczne C.	!	!
!LO:TX:a:Bi:t=adag:mod=	!	!LO:TX:a:Bi:t=adag&colon;:mod=	!LO:DY:a	!LO:TX:a:Bi:t=adag&colon;:mod=	!LO:DY:a	!LO:TX:a:Bi:t=adag&colon;:mod=	!LO:DY:a	!LO:TX:a:Bi:t=adag&colon;:mod=	!	!LO:TX:a:Bi:t=adag&colon;:mod=	!	!LO:TX:a:Bi:t=adag&colon;:mod=	!	!LO:TX:a:Bi:t=adag&colon;:mod=	!	!LO:TX:a:Bi:t=Adagio:mod=	!LO:DY:rj:t=p&colon;:mod=%s	!LO:TX:a:Bi:t=adagio.:mod=	!LO:TX:a:Bi:t=adagio.:mod=	!LO:TX:a:Bi:t=adagio:mod=	!LO:TX:a:Bi:t=adag&colon;:mod=	!LO:TX:a:Bi:t=adagio:mod=	!LO:TX:a:Bi:t=adagio:mod=
4D\	.	4f# 4A\	f	4dd 4f#\	f	4ff# 4a 4d\	f	4D\	Cum	4A\	Cum	4f#\	Cum	4dd\	Cum	16D\LL	p	4F#/	4d\	4dd\	4ff#\	4dd\	4ff#\
.	.	.	.	.	.	.	.	.	.	.	.	.	.	.	.	16D\	.	.	.	.	.	.	.
.	.	.	.	.	.	.	.	.	.	.	.	.	.	.	.	16D\	.	.	.	.	.	.	.
.	.	.	.	.	.	.	.	.	.	.	.	.	.	.	.	16D\JJ	.	.	.	.	.	.	.
4D\	.	4f# 4A\	.	4dd 4f#\	.	4ff# 4a 4d\	.	4D\	San-	4A\	San-	4f#\	San-	4dd\	San-	16D\LL	.	4F#/	4d\	4dd\	4ff#\	4dd\	4ff#\
.	.	.	.	.	.	.	.	.	.	.	.	.	.	.	.	16D\	.	.	.	.	.	.	.
.	.	.	.	.	.	.	.	.	.	.	.	.	.	.	.	16D\	.	.	.	.	.	.	.
.	.	.	.	.	.	.	.	.	.	.	.	.	.	.	.	16D\JJ	.	.	.	.	.	.	.
4D\	.	4f# 4A\	.	4dd 4f#\	.	4ff# 4a 4d\	.	4D\	-cto	4A\	-cto	4f#\	-cto	4dd\	-cto	16D\LL	.	4F#/	4d\	4dd\	4ff#\	4dd\	4ff#\
.	.	.	.	.	.	.	.	.	.	.	.	.	.	.	.	16D\	.	.	.	.	.	.	.
.	.	.	.	.	.	.	.	.	.	.	.	.	.	.	.	16D\	.	.	.	.	.	.	.
.	.	.	.	.	.	.	.	.	.	.	.	.	.	.	.	16D\JJ	.	.	.	.	.	.	.
=2	=2	=2	=2	=2	=2	=2	=2	=2	=2	=2	=2	=2	=2	=2	=2	=2	=2	=2	=2	=2	=2	=2	=2
!	!	!	!	!	!	!	!	!	!	!	!	!	!	!LO:MO:mod=8dd	!	!	!	!	!	!	!	!	!
4D\	.	4f# 4A\	.	4dd 4f#\	.	4ff# 4a 4d\	.	8D\	Spi-	8A\	Spi-	8f#\	Spi-	8.dd\	Spi-	16D\LL	.	4F#/	4d\	4dd\	4ff#\	4dd\	4ff#\
.	.	.	.	.	.	.	.	.	.	.	.	.	.	.	.	16D\	.	.	.	.	.	.	.
!	!	!	!	!	!	!	!	!	!	!	!	!	!	!LO:MO:null:mod=8dd	!LO:MO:null:mod=-ri-	!	!	!	!	!	!	!	!
.	.	.	.	.	.	.	.	8D\	-ri-	8A\	-ri-	8f#\	-ri-	.	.	16D\	.	.	.	.	.	.	.
!	!	!	!	!	!	!	!	!	!	!	!	!	!	!LO:MO:mod=.	!LO:MO:mod=.	!	!	!	!	!	!	!	!
.	.	.	.	.	.	.	.	.	.	.	.	.	.	16dd\	-ri-	16D\JJ	.	.	.	.	.	.	.
4D\	.	4f# 4A\	.	8r	.	8r	.	4D\	-tu	4A\	-tu	4f#\	-tu	4dd\	-tu	16D\LL	.	4F#/	4d\	4dd\	4ff#\	4dd\	4ff#\
.	.	.	.	.	.	.	.	.	.	.	.	.	.	.	.	16D\	.	.	.	.	.	.	.
.	.	.	.	8dd|\L	.	8ff#|\L	.	.	.	.	.	.	.	.	.	16D\	.	.	.	.	.	.	.
.	.	.	.	.	.	.	.	.	.	.	.	.	.	.	.	16D\JJ	.	.	.	.	.	.	.
*	*	*	*	*	*	*	*	*	*	*	*	*	*	*	*	*Xtremolo	*	*	*	*	*	*	*
4r	.	4r	.	8dd|\	.	8ff#|\	.	4r	.	4r	.	4r	.	4r	.	4r	.	4r	4r	4r	4r	4r	4r
.	.	.	.	8dd|\J	.	8ff#|\J	.	.	.	.	.	.	.	.	.	.	.	.	.	.	.	.	.
=3	=3	=3	=3	=3	=3	=3	=3	=3	=3	=3	=3	=3	=3	=3	=3	=3	=3	=3	=3	=3	=3	=3	=3
!	!	!	!	!	!	!	!	!	!	!	!	!	!	!	!	!LO:TX:a:t=1.:mod=	!	!	!	!	!	!	!
2.r	.	2.r	.	(16dd\LL	.	(16ff#\LL	.	2.r	.	2.r	.	2.r	.	2.r	.	2.r	.	2.r	2.r	2.r	2.r	2.r	2.r
.	.	.	.	16ee\)	.	16gg\)	.	.	.	.	.	.	.	.	.	.	.	.	.	.	.	.	.
.	.	.	.	(16ee\	.	(16gg\	.	.	.	.	.	.	.	.	.	.	.	.	.	.	.	.	.
.	.	.	.	16ff#\JJ)	.	16aa\JJ)	.	.	.	.	.	.	.	.	.	.	.	.	.	.	.	.	.
.	.	.	.	(16ff#\LL	.	(16aa\LL	.	.	.	.	.	.	.	.	.	.	.	.	.	.	.	.	.
.	.	.	.	16gg\)	.	16bb\)	.	.	.	.	.	.	.	.	.	.	.	.	.	.	.	.	.
.	.	.	.	(16gg\	.	(16bb\	.	.	.	.	.	.	.	.	.	.	.	.	.	.	.	.	.
.	.	.	.	16ff#\JJ)	.	16aa\JJ)	.	.	.	.	.	.	.	.	.	.	.	.	.	.	.	.	.
.	.	.	.	(16ff#\LL	.	(16aa\LL	.	.	.	.	.	.	.	.	.	.	.	.	.	.	.	.	.
.	.	.	.	16ee\)	.	16gg\)	.	.	.	.	.	.	.	.	.	.	.	.	.	.	.	.	.
.	.	.	.	(16ee\	.	(16gg\	.	.	.	.	.	.	.	.	.	.	.	.	.	.	.	.	.
.	.	.	.	16dd\JJ)	.	16ff#\JJ)	.	.	.	.	.	.	.	.	.	.	.	.	.	.	.	.	.
=4	=4	=4	=4	=4	=4	=4	=4	=4	=4	=4	=4	=4	=4	=4	=4	=4	=4	=4	=4	=4	=4	=4	=4
*	*	*^	*	*	*	*	*	*	*	*	*	*	*	*	*	*	*	*	*	*	*	*	*
*	*	*	*	*	*	*	*	*	*	*ij	*	*ij	*	*ij	*	*ij	*tremolo	*	*	*	*	*	*	*
!	!	!	!	!	!	!	!	!	!	!	!	!	!	!	!	!	!LO:SIC:o=16AAT/LL	!	!	!	!	!	!	!
4AA/	.	4e/	4c#\	.	4cc# 4e\	.	4ee\	.	4A\	Cum	4A\	Cum	4e\	Cum	4cc#\	Cum	16AALL	.	4A/	4e\	4cc#\	4ee\	4cc#\	4ee\
!	!	!	!	!	!	!	!	!	!	!	!	!	!	!	!	!	!LO:SIC:o=16AAT/	!	!	!	!	!	!	!
.	.	.	.	.	.	.	.	.	.	.	.	.	.	.	.	.	16AA	.	.	.	.	.	.	.
!	!	!	!	!	!	!	!	!	!	!	!	!	!	!	!	!	!LO:SIC:o=16AAT/	!	!	!	!	!	!	!
.	.	.	.	.	.	.	.	.	.	.	.	.	.	.	.	.	16AA	.	.	.	.	.	.	.
!	!	!	!	!	!	!	!	!	!	!	!	!	!	!	!	!	!LO:SIC:o=16AAT/JJ	!	!	!	!	!	!	!
.	.	.	.	.	.	.	.	.	.	.	.	.	.	.	.	.	16AAJJ	.	.	.	.	.	.	.
4AA/	.	4e/	4c#\	.	4cc# 4e\	.	4aa 4cc# 4e\	.	4A\	San-	4A\	San-	4e\	San-	4cc#\	San-	16AA/LL	.	4A/	4e\	4cc#\	4ee\	4cc#\	4ee\
.	.	.	.	.	.	.	.	.	.	.	.	.	.	.	.	.	16AA/	.	.	.	.	.	.	.
.	.	.	.	.	.	.	.	.	.	.	.	.	.	.	.	.	16AA/	.	.	.	.	.	.	.
.	.	.	.	.	.	.	.	.	.	.	.	.	.	.	.	.	16AA/JJ	.	.	.	.	.	.	.
4AA/	.	4e/	4c#\	.	4cc# 4e\	.	4aa 4cc# 4e\	.	4A\	-cto	4A\	-cto	4e\	-cto	4cc#\	-cto	16AA/LL	.	4A/	4e\	4cc#\	4ee\	4cc#\	4ee\
.	.	.	.	.	.	.	.	.	.	.	.	.	.	.	.	.	16AA/	.	.	.	.	.	.	.
.	.	.	.	.	.	.	.	.	.	.	.	.	.	.	.	.	16AA/	.	.	.	.	.	.	.
.	.	.	.	.	.	.	.	.	.	.	.	.	.	.	.	.	16AA/JJ	.	.	.	.	.	.	.
=5	=5	=5	=5	=5	=5	=5	=5	=5	=5	=5	=5	=5	=5	=5	=5	=5	=5	=5	=5	=5	=5	=5	=5	=5
!	!	!	!	!	!	!	!	!	!	!	!	!	!	!	!LO:MO:mod=8cc#	!	!LO:SIC:o=16AAT/LL	!	!	!	!	!	!	!
4AA/	.	4e/	4c#\	.	4cc# 4e\	.	4aa 4cc# 4e\	.	8A\	Spi-	8A\	Spi-	8e\	Spi-	8.cc#\	Spi-	16AALL	.	4A/	4e\	4cc#\	4ee\	4cc#\	4ee\
!	!	!	!	!	!	!	!	!	!	!	!	!	!	!	!	!	!LO:SIC:o=16AAT/	!	!	!	!	!	!	!
.	.	.	.	.	.	.	.	.	.	.	.	.	.	.	.	.	16AA	.	.	.	.	.	.	.
!	!	!	!	!	!	!	!	!	!	!	!	!	!	!	!LO:MO:null:mod=8cc#	!LO:MO:null:mod=-ri-	!LO:SIC:o=16AAT/	!	!	!	!	!	!	!
.	.	.	.	.	.	.	.	.	8A\	-ri-	8A\	-ri-	8e\	-ri-	.	.	16AA	.	.	.	.	.	.	.
!	!	!	!	!	!	!	!	!	!	!	!	!	!	!	!LO:MO:mod=.	!LO:MO:mod=.	!LO:SIC:o=16AAT/JJ	!	!	!	!	!	!	!
.	.	.	.	.	.	.	.	.	.	.	.	.	.	.	16cc#\	-ri-	16AAJJ	.	.	.	.	.	.	.
4AA/	.	4e/	4c#\	.	8r	.	8r	.	4A\	-tu	4A\	-tu	4e\	-tu	4cc#\	-tu	16AA/LL	.	4A/	4e\	4cc#\	4ee\	4cc#\	4ee\
.	.	.	.	.	.	.	.	.	.	.	.	.	.	.	.	.	16AA/	.	.	.	.	.	.	.
.	.	.	.	.	8cc#|\L	.	8ee|\L	.	.	.	.	.	.	.	.	.	16AA/	.	.	.	.	.	.	.
.	.	.	.	.	.	.	.	.	.	.	.	.	.	.	.	.	16AA/JJ	.	.	.	.	.	.	.
*	*	*	*	*	*	*	*	*	*	*Xij	*	*Xij	*	*Xij	*	*Xij	*Xtremolo	*	*	*	*	*	*	*
4r	.	4r	4ryy	.	8cc#|\	.	8ee|\	.	4r	.	4r	.	4r	.	4r	.	4r	.	4r	4r	4r	4r	4r	4r
.	.	.	.	.	8cc#|\J	.	8ee|\J	.	.	.	.	.	.	.	.	.	.	.	.	.	.	.	.	.
*	*	*v	*v	*	*	*	*	*	*	*	*	*	*	*	*	*	*	*	*	*	*	*	*	*
=6	=6	=6	=6	=6	=6	=6	=6	=6	=6	=6	=6	=6	=6	=6	=6	=6	=6	=6	=6	=6	=6	=6	=6
!	!	!	!	!	!	!	!	!	!	!	!	!	!	!	!	!LO:TX:a:t=4.:mod=	!	!	!	!	!	!	!
2.r	.	1.r	.	(16cc#\LL	.	(16ee\LL	.	0.r	.	1.r	.	1.r	.	2.r	.	0.r	.	0.r	0.r	1.r	2.r	1.r	2.r
.	.	.	.	16dd\)	.	16ff#\)	.	.	.	.	.	.	.	.	.	.	.	.	.	.	.	.	.
.	.	.	.	(16dd\	.	(16ff#\	.	.	.	.	.	.	.	.	.	.	.	.	.	.	.	.	.
.	.	.	.	16ee\JJ)	.	16gg\JJ)	.	.	.	.	.	.	.	.	.	.	.	.	.	.	.	.	.
.	.	.	.	(16ee\LL	.	(16gg\LL	.	.	.	.	.	.	.	.	.	.	.	.	.	.	.	.	.
.	.	.	.	16ff#\)	.	16aa\)	.	.	.	.	.	.	.	.	.	.	.	.	.	.	.	.	.
.	.	.	.	(16ff#\	.	(16aa\	.	.	.	.	.	.	.	.	.	.	.	.	.	.	.	.	.
.	.	.	.	16ee\JJ)	.	16gg\JJ)	.	.	.	.	.	.	.	.	.	.	.	.	.	.	.	.	.
!	!	!	!	!LO:LB:g=original	!	!LO:LB:g=original	!	!	!	!	!	!	!	!	!	!	!	!	!	!	!	!	!
.	.	.	.	(16ee\LL	.	(16gg\LL	.	.	.	.	.	.	.	.	.	.	.	.	.	.	.	.	.
.	.	.	.	16dd\)	.	16ff#\)	.	.	.	.	.	.	.	.	.	.	.	.	.	.	.	.	.
.	.	.	.	(16dd\	.	(16ff#\	.	.	.	.	.	.	.	.	.	.	.	.	.	.	.	.	.
.	.	.	.	16cc#\JJ)	.	16ee\JJ)	.	.	.	.	.	.	.	.	.	.	.	.	.	.	.	.	.
!LO:MO:mod=*clefG2	!	!	!	!	!	!	!	!	!	!	!	!	!	!LO:LB:g=original	!	!	!	!	!	!	!LO:LB:g=original	!	!
*null	*	*	*	*	*	*	*	*	*	*	*	*	*	*	*	*	*	*	*	*	*	*	*
=7	=7	=7	=7	=7	=7	=7	=7	=7	=7	=7	=7	=7	=7	=7	=7	=7	=7	=7	=7	=7	=7	=7	=7
!LO:MO:mod=*null:null	!	!	!	!	!	!	!	!	!	!	!	!	!	!	!	!	!	!	!	!	!	!	!
*clefC1	*	*	*	*	*	*	*	*	*	*	*	*	*	*	*	*	*	*	*	*	*	*	*
8r	.	.	.	8dd\	.	8ff#\L	.	.	.	.	.	.	.	8r	.	.	.	.	.	.	8r	.	8r
8dd/L	.	.	.	8r	.	8dd\	.	.	.	.	.	.	.	8dd\	in	.	.	.	.	.	8dd\L	.	8dd\L
8ee/	.	.	.	4r	.	8ee\	.	.	.	.	.	.	.	8ee\	glo-	.	.	.	.	.	8ee\	.	8ee\
8dd/	.	.	.	.	.	8dd\	.	.	.	.	.	.	.	16dd\	-ri-	.	.	.	.	.	8dd\	.	8dd\
.	.	.	.	.	.	.	.	.	.	.	.	.	.	16dd\	-a	.	.	.	.	.	.	.	.
!	!	!	!	!	!	!	!	!	!	!	!	!	!	!	!LO:MO:mod=De-	!	!	!	!	!	!	!	!
8ee/	.	.	.	4r	.	8ee\	.	.	.	.	.	.	.	8ee\	de-	.	.	.	.	.	8ee\	.	8ee\
8ff#/J	.	.	.	.	.	8ff#\J	.	.	.	.	.	.	.	8ff#\	-i	.	.	.	.	.	8ff#\J	.	8ff#\J
!	!	!	!	!	!	!	!	!	!	!	!	!LO:LB:g=original	!	!	!	!	!	!	!	!LO:LB:g=original	!	!	!
=8	=8	=8	=8	=8	=8	=8	=8	=8	=8	=8	=8	=8	=8	=8	=8	=8	=8	=8	=8	=8	=8	=8	=8
*^	*	*	*	*	*	*	*	*	*	*	*	*	*	*	*	*	*	*	*	*	*	*	*
!	!	!	!	!	!	!	!LO:MO:mod=*null:null	!	!	!	!	!	!	!	!LO:MO:mod=*null:null	!	!	!	!	!	!	!LO:MO:mod=*null:null	!	!LO:MO:mod=*null:null
*	*	*	*	*	*	*	*2\right	*	*	*	*	*	*	*	*2\right	*	*	*	*	*	*	*2\right	*	*2\right
!	!	!	!	!	!	!	!	!	!	!	!	!	!	!	!	!LO:MO:mod=Pa-	!	!	!	!	!	!	!	!
2.gg/	8r	.	2.r	.	8r	.	2.gg\	.	.	.	2.r	.	8r	.	2.gg\	pat-	.	.	.	.	8r	2.gg\	8r	2.gg\
.	8a\L	.	.	.	8a\L	.	.	.	.	.	.	.	8a\	in	.	.	.	.	.	.	8a\L	.	8a\L	.
.	8b\	.	.	.	8b\	.	.	.	.	.	.	.	8b\	glo-	.	.	.	.	.	.	8b\	.	8b\	.
.	8a\	.	.	.	8a\	.	.	.	.	.	.	.	16a\	-ri-	.	.	.	.	.	.	8a\	.	8a\	.
.	.	.	.	.	.	.	.	.	.	.	.	.	16a\	-a	.	.	.	.	.	.	.	.	.	.
!	!	!	!	!	!	!	!	!	!	!	!	!	!	!LO:MO:mod=De-	!	!	!	!	!	!	!	!	!	!
.	8b\	.	.	.	8b\	.	.	.	.	.	.	.	8b\	de-	.	.	.	.	.	.	8b\	.	8b\	.
.	8cc#\J	.	.	.	8cc#\J	.	.	.	.	.	.	.	8cc#\	-i	.	.	.	.	.	.	8cc#\J	.	8cc#\J	.
!	!	!	!	!	!	!	!	!	!	!	!LO:LB:g=original	!	!	!	!	!	!	!	!	!	!	!	!	!
=9	=9	=9	=9	=9	=9	=9	=9	=9	=9	=9	=9	=9	=9	=9	=9	=9	=9	=9	=9	=9	=9	=9	=9	=9
!	!	!	!	!	!LO:MO:mod=*null:null	!	!	!	!	!	!	!	!LO:MO:mod=*null:null	!	!	!	!	!	!	!	!LO:MO:mod=*null:null	!	!LO:MO:mod=*null:null	!
*	*	*	*	*	*2\right	*	*	*	*	*	*	*	*2\right	*	*	*	*	*	*	*	*2\right	*	*2\right	*
!	!	!	!	!	!	!	!	!	!	!	!	!	!	!LO:MO:mod=Pa-	!	!	!	!	!	!	!	!	!	!
8ff#/	8dd\	.	8r	.	2.dd\	.	2.ff#\	.	.	.	8r	.	2.dd\	pa-	2.ff#\	.	.	.	.	.	2.dd\	2.ff#\	2.dd\	2.ff#\
!LO:LB:g=original	!	!	!	!	!	!	!	!	!	!	!	!	!	!	!	!	!	!	!	!	!	!	!	!
!LO:MO:mod=*null:null	!	!	!	!	!	!	!	!	!	!	!	!	!	!	!	!	!	!	!	!	!	!	!	!
*clefC4	*	*	*	*	*	*	*	*	*	*	*	*	*	*	*	*	*	*	*	*	*	*	*	*
8d\L	8ryyyy	3	8d\L	.	.	.	.	.	.	.	8d\	in	.	.	.	.	.	.	.	.	.	.	.	.
8e\	2ryyyy	.	8e\	.	.	.	.	.	.	.	8e\	glo-	.	.	.	.	.	.	.	.	.	.	.	.
8d\	.	.	8d\	.	.	.	.	.	.	.	16d\	-ri-	.	.	.	.	.	.	.	.	.	.	.	.
.	.	.	.	.	.	.	.	.	.	.	16d\	-a	.	.	.	.	.	.	.	.	.	.	.	.
!	!	!	!	!	!	!	!	!	!	!	!	!LO:MO:mod=De-	!	!	!	!	!	!	!	!	!	!	!	!
8e\	.	.	8e\	.	.	.	.	.	.	.	8e\	de-	.	.	.	.	.	.	.	.	.	.	.	.
8f#\J	.	.	8f#\J	.	.	.	.	.	.	.	8f#\	-i	.	.	.	.	.	.	.	.	.	.	.	.
*v	*v	*	*	*	*	*	*	*	*	*	*	*	*	*	*	*	*	*	*	*	*	*	*	*
!	!	!	!	!	!	!	!	!LO:LB:g=original	!	!	!	!	!	!	!	!	!	!	!	!	!	!	!LO:LB:g=original
=10	=10	=10	=10	=10	=10	=10	=10	=10	=10	=10	=10	=10	=10	=10	=10	=10	=10	=10	=10	=10	=10	=10	=10
!	!	!LO:MO:mod=*null:null	!	!	!	!	!	!	!	!LO:MO:mod=*null:null	!	!	!	!	!	!	!	!	!	!	!	!	!
*	*	*2\right	*	*	*	*	*	*	*	*2\right	*	*	*	*	*	*	*	*	*	*	*	*	*
!	!	!	!	!	!	!	!	!	!	!	!LO:MO:mod=Pa-	!	!LO:MO:mod=.	!	!	!	!	!	!	!	!	!	!
8g\	4 2	2.g\	.	2.cc#\	.	2.ee\	.	8r	.	2.g\	pa-	2.cc#\	-tris	2.ee\	.	4r	.	4r	4r	2.cc#\	2.ee\	2.cc#\	2.ee\
*clefF4	*	*	*	*	*	*	*	*	*	*	*	*	*	*	*	*	*	*	*	*	*	*	*
8A\L	3_	.	.	.	.	.	.	8A\	in	.	.	.	.	.	.	.	.	.	.	.	.	.	.
*	*	*	*	*	*	*	*	*	*	*	*	*	*	*	*	*tremolo	*	*	*	*	*	*	*
8B\	.	.	.	.	.	.	.	8B\	glo-	.	.	.	.	.	.	16AA/LL	.	4A/	4e\	.	.	.	.
.	.	.	.	.	.	.	.	.	.	.	.	.	.	.	.	16AA/	.	.	.	.	.	.	.
8A\	.	.	.	.	.	.	.	16A\	-ri-	.	.	.	.	.	.	16AA/	.	.	.	.	.	.	.
.	.	.	.	.	.	.	.	16A\	-a	.	.	.	.	.	.	16AA/JJ	.	.	.	.	.	.	.
!	!	!	!	!	!	!	!	!	!LO:MO:mod=De-	!	!	!	!	!	!	!	!	!	!	!	!	!	!
8B\	.	.	.	.	.	.	.	8B\	de-	.	.	.	.	.	.	16AA/LL	.	4A/	4e\	.	.	.	.
.	.	.	.	.	.	.	.	.	.	.	.	.	.	.	.	16AA/	.	.	.	.	.	.	.
8c#\J	.	.	.	.	.	.	.	8c#\	-i	.	.	.	.	.	.	16AA/	.	.	.	.	.	.	.
.	.	.	.	.	.	.	.	.	.	.	.	.	.	.	.	16AA/JJ	.	.	.	.	.	.	.
!	!	!	!	!	!	!	!	!	!	!	!	!	!	!	!	!LO:LB:g=original	!	!	!	!	!	!LO:LB:g=original	!
=11	=11	=11	=11	=11	=11	=11	=11	=11	=11	=11	=11	=11	=11	=11	=11	=11	=11	=11	=11	=11	=11	=11	=11
!LO:MO:mod=*null:null	!	!	!	!	!	!	!	!LO:MO:mod=*null:null	!	!	!	!	!	!	!	!	!	!	!	!	!	!	!
*2\right	*	*	*	*	*	*	*	*2\right	*	*	*	*	*	*	*	*	*	*	*	*	*	*	*
!	!	!	!	!	!	!	!	!	!LO:MO:mod=Pa-	!	!	!	!LO:MO:mod=.	!	!	!	!	!	!	!	!	!	!
2d\	3	4f#\	.	4dd\	.	4ff#\	.	2d\	pa-	4f#\	.	4dd\	a-	4ff#\	.	16D\LL	.	4d\	4f#\	4dd\	4ff#\	4dd\	4ff#\
.	.	.	.	.	.	.	.	.	.	.	.	.	.	.	.	16D\	.	.	.	.	.	.	.
.	.	.	.	.	.	.	.	.	.	.	.	.	.	.	.	16D\	.	.	.	.	.	.	.
!	!	!	!	!	!	!	!	!	!	!	!	!	!	!	!	!LO:SIC:o=16D\JJ	!	!	!	!	!	!	!
.	.	.	.	.	.	.	.	.	.	.	.	.	.	.	.	16D	.	.	.	.	.	.	.
!	!	!	!	!	!	!	!	!	!	!	!LO:MO:mod=-tris.	!	!	!	!	!LO:SIC:o=16AA/LL	!	!	!	!	!	!	!
.	r#4 2	4e\	.	4b\	.	4gg#X\	.	.	.	2e\	-tris	4b\	.	4gg#X\	.	16D	.	4e\	4g#X\	4b\	4gg#\	4b\	4gg#X\
!	!	!	!	!	!	!	!	!	!	!	!	!	!	!	!	!LO:SIC:o=16AA/	!	!	!	!	!	!	!
.	.	.	.	.	.	.	.	.	.	.	.	.	.	.	.	16D	.	.	.	.	.	.	.
!	!	!	!	!	!	!	!	!	!	!	!	!	!	!	!	!LO:SIC:o=16AA/	!	!	!	!	!	!	!
.	.	.	.	.	.	.	.	.	.	.	.	.	.	.	.	16D	.	.	.	.	.	.	.
!	!	!	!	!	!	!	!	!	!	!	!	!	!	!	!	!LO:SIC:o=16AA/JJ	!	!	!	!	!	!	!
.	.	.	.	.	.	.	.	.	.	.	.	.	.	.	.	16DJJ	.	.	.	.	.	.	.
!	!	!	!	!	!	!	!	!	!LO:MO:mod=-tris.	!	!	!	!LO:MO:null:mod=-tris.	!	!LO:MO:mod=-tris.	!	!	!	!	!	!	!	!
4c#\	6	4e\	.	4cc#\	.	4aa\	.	4c#\	-tris	.	.	4cc#\	.	4aa\	-ris	16AA/LL	.	4A/	4a\	4cc#\	4aa\	4cc#\	4aa\
.	.	.	.	.	.	.	.	.	.	.	.	.	.	.	.	16AA/	.	.	.	.	.	.	.
.	.	.	.	.	.	.	.	.	.	.	.	.	.	.	.	16AA/	.	.	.	.	.	.	.
.	.	.	.	.	.	.	.	.	.	.	.	.	.	.	.	16AA/JJ	.	.	.	.	.	.	.
!	!	!LO:LB:g=original	!	!	!	!	!	!	!	!	!	!	!	!	!	!	!	!	!	!	!	!	!
=12	=12	=12	=12	=12	=12	=12	=12	=12	=12	=12	=12	=12	=12	=12	=12	=12	=12	=12	=12	=12	=12	=12	=12
!	!	!	!	!	!	!	!	!	!	!	!	!	!	!	!	!LO:MO:mod=*null:null	!	!LO:MO:mod=*null:null	!LO:MO:mod=*null:null	!	!	!	!
*	*	*	*	*	*	*	*	*	*	*	*	*	*	*	*	*2\right	*	*2\right	*2\right	*	*	*	*
!	!	!	!	!	!	!	!	!	!LO:MO:mod=A-	!	!LO:MO:mod=A-	!	!LO:MO:null:mod=A-	!	!LO:MO:mod=A-	!	!	!	!	!	!	!	!
2.B\	7	2f#\	.	2.dd\	.	4aa\	.	2.B\	a-	2f#\	a-	2.dd\	.	4aa\	a-	16D\LL	.	2f#\	2a\	2.dd\	2aa\	2.dd\	2aa\
.	.	.	.	.	.	.	.	.	.	.	.	.	.	.	.	16D\	.	.	.	.	.	.	.
.	.	.	.	.	.	.	.	.	.	.	.	.	.	.	.	16D\	.	.	.	.	.	.	.
.	.	.	.	.	.	.	.	.	.	.	.	.	.	.	.	16D\	.	.	.	.	.	.	.
!	!	!	!	!	!	!LO:SIC:v:o=8gg\L	!	!	!	!	!	!	!	!LO:SIC:v:o=8gg\L	!	!	!	!	!	!	!	!	!
.	.	.	.	.	.	8gg#\L	.	.	.	.	.	.	.	8gg#\L	.	16D\	.	.	.	.	.	.	.
.	.	.	.	.	.	.	.	.	.	.	.	.	.	.	.	16D\	.	.	.	.	.	.	.
.	.	.	.	.	.	8ff#\J	.	.	.	.	.	.	.	8ff#\J	.	16D\	.	.	.	.	.	.	.
.	.	.	.	.	.	.	.	.	.	.	.	.	.	.	.	16D\JJ	.	.	.	.	.	.	.
!	!	!	!	!	!	!LO:SIC:v:o=4gg\	!	!	!	!	!	!	!	!LO:SIC:v:o=4gg\	!	!LO:SIC:o=16AA/LL	!	!	!LO:SIC:v:o=4g\	!	!LO:SIC:v:o=4gg\	!	!LO:SIC:v:o=4gg\
.	6\	4e\	.	.	.	4gg#\	.	.	.	4e\	.	.	.	4gg#\	.	16DLL	.	4e\	4g#\	.	4gg#\	.	4gg#\
!	!	!	!	!	!	!	!	!	!	!	!	!	!	!	!	!LO:SIC:o=16AA/	!	!	!	!	!	!	!
.	.	.	.	.	.	.	.	.	.	.	.	.	.	.	.	16D	.	.	.	.	.	.	.
!	!	!	!	!	!	!	!	!	!	!	!	!	!	!	!	!LO:SIC:o=16AA/	!	!	!	!	!	!	!
.	.	.	.	.	.	.	.	.	.	.	.	.	.	.	.	16D	.	.	.	.	.	.	.
!	!	!	!	!	!	!	!	!	!	!	!	!	!	!	!	!LO:SIC:o=16AA/JJ	!	!	!	!	!	!	!
.	.	.	.	.	.	.	.	.	.	.	.	.	.	.	.	16DJJ	.	.	.	.	.	.	.
=13	=13	=13	=13	=13	=13	=13	=13	=13	=13	=13	=13	=13	=13	=13	=13	=13	=13	=13	=13	=13	=13	=13	=13
!	!	!	!	!	!	!	!	!	!LO:MO:mod=-men.	!	!LO:MO:mod=-men.	!	!LO:MO:mod=-men.	!	!LO:MO:mod=-men.	!	!	!	!	!	!	!	!
2A\	.	2e\	.	2cc#\	.	2aa\	.	2A\	-men	2e\	-men	2cc#\	-men	2aa\	-men	16AA/LL	.	2A/	2a\	2cc#\	2aa\	2cc#\	2aa\
.	.	.	.	.	.	.	.	.	.	.	.	.	.	.	.	16AA/	.	.	.	.	.	.	.
.	.	.	.	.	.	.	.	.	.	.	.	.	.	.	.	16AA/	.	.	.	.	.	.	.
.	.	.	.	.	.	.	.	.	.	.	.	.	.	.	.	16AA/	.	.	.	.	.	.	.
.	.	.	.	.	.	.	.	.	.	.	.	.	.	.	.	16AA/	.	.	.	.	.	.	.
.	.	.	.	.	.	.	.	.	.	.	.	.	.	.	.	16AA/	.	.	.	.	.	.	.
.	.	.	.	.	.	.	.	.	.	.	.	.	.	.	.	16AA/	.	.	.	.	.	.	.
.	.	.	.	.	.	.	.	.	.	.	.	.	.	.	.	16AA/JJ	.	.	.	.	.	.	.
*	*	*	*	*	*	*	*	*	*	*	*	*	*	*	*	*Xtremolo	*	*	*	*	*	*	*
4r	.	4r	.	4r	.	4r	.	4r	.	4r	.	4r	.	4r	.	4r	.	4r	4r	4r	4r	4r	4r
!LO:MO:mod=*clefG2	!	!	!	!	!	!	!	!	!	!	!	!	!	!	!	!	!	!	!	!	!	!	!
*null	*	*	*	*	*	*	*	*	*	*	*	*	*	*	*	*	*	*	*	*	*	*	*
!LO:LB:g=original	!	!	!	!LO:LB:g=original	!	!LO:LB:g=original	!	!LO:LB:g=original	!	!LO:PB:g=original	!	!LO:LB:g=original	!	!LO:LB:g=original	!	!	!	!LO:LB:g=original	!LO:LB:g=original	!LO:LB:g=original	!LO:LB:g=original	!LO:PB:g=original	!LO:PB:g=original
=14||	=14||	=14||	=14||	=14||	=14||	=14||	=14||	=14||	=14||	=14||	=14||	=14||	=14||	=14||	=14||	=14||	=14||	=14||	=14||	=14||	=14||	=14||	=14||
!!!OMD:
!!!OMD-mod: Allegro
!LO:MO:mod=*null:null	!	!	!	!	!	!	!	!	!	!	!	!	!	!	!	!	!	!	!	!	!	!	!
*clefC3	*	*	*	*	*	*	*	*	*	*	*	*	*	*	*	*	*	*	*	*	*	*	*
*M4/4	*	*M4/4	*	*M4/4	*	*M4/4	*	*M4/4	*	*M4/4	*	*M4/4	*	*M4/4	*	*M4/4	*	*M4/4	*M4/4	*M4/4	*M4/4	*M4/4	*M4/4
*met(C.)	*	*met(C.)	*	*met(c)	*	*met(C.)	*	*met(C.)	*	*met(C.)	*	*met(C.)	*	*met(C.)	*	*met(c)	*	*met(C.)	*met(C.)	*met(C.)	*met(C.)	*met(C.)	*met(C.)
*mmet(c)	*	*mmet(c)	*	*mmet(c)	*	*mmet(c)	*	*mmet(c)	*	*mmet(c)	*	*mmet(c)	*	*mmet(c)	*	*mmet(c)	*	*mmet(c)	*mmet(c)	*mmet(c)	*mmet(c)	*mmet(c)	*mmet(c)
!	!	!	!	!	!	!	!	!	!	!	!	!	!	!	!	!LO:TX:b:Bi:t=Amen:mod=	!	!	!	!	!	!	!
!	!	!LO:TX:a:Bi:t=allo:mod=	!	!LO:TX:a:Bi:t=allo&colon;:mod=	!	!LO:TX:a:Bi:t=allo&colon;:mod=	!	!	!	!	!	!	!	!	!	!LO:TX:a:t=12.:mod=	!	!LO:TX:a:Bi:t=allo&colon;:mod=	!	!LO:TX:a:Bi:t=allo&colon;:mod=	!LO:TX:a:Bi:t=allo&colon;:mod=	!LO:TX:a:Bi:t=allo&colon;:mod=	!LO:TX:a:Bi:t=allo&colon;:mod=
!LO:TX:a:Bi:t=allo:mod=	!	!LO:TX:b:i:t=Amen&colon;:mod=	!	!LO:TX:b:i:t=Amen&colon;:mod=	!	!LO:TX:b:i:t=Amen:mod=	!	!LO:TX:a:Bi:t=allo&colon;:mod=	!	!LO:TX:a:Bi:t=allo&colon;:mod=	!	!LO:TX:a:Bi:t=allo&colon;:mod=	!	!LO:TX:a:Bi:t=allo:mod=	!	!LO:TX:a:Bi:t=Allo:mod=	!	!LO:TX:b:i:t=Amen&colon;:mod=	!LO:TX:b:i:t=Amen&colon;:mod=	!LO:TX:b:i:t=Amen:mod=	!LO:TX:b:i:t=Amen&colon;:mod=	!LO:TX:b:i:t=Amen&colon;:mod=	!LO:TX:b:i:t=Amen:mod=
2.d|\	.	2.d\	.	00r	.	00r	.	00r	.	2.d\	A-	00r	.	00r	.	00r	.	00r	00r	00r	00r	00r	00r
4c#|\	.	4c#\	.	.	.	.	.	.	.	4c#\	.	.	.	.	.	.	.	.	.	.	.	.	.
=15	=15	=15	=15	=15	=15	=15	=15	=15	=15	=15	=15	=15	=15	=15	=15	=15	=15	=15	=15	=15	=15	=15	=15
4.d|\	.	4.d\	.	.	.	.	.	.	.	4.d\	.	.	.	.	.	.	.	.	.	.	.	.	.
8e|\	.	8e\	.	.	.	.	.	.	.	8e\	.	.	.	.	.	.	.	.	.	.	.	.	.
8f#|\L	.	8f#\L	.	.	.	.	.	.	.	8f#\L	.	.	.	.	.	.	.	.	.	.	.	.	.
8e|\J	.	8e\J	.	.	.	.	.	.	.	8e\J	.	.	.	.	.	.	.	.	.	.	.	.	.
4d|\	.	4d\	.	.	.	.	.	.	.	4d\	-men	.	.	.	.	.	.	.	.	.	.	.	.
=16	=16	=16	=16	=16	=16	=16	=16	=16	=16	=16	=16	=16	=16	=16	=16	=16	=16	=16	=16	=16	=16	=16	=16
4.e|\	.	4.e\	.	.	.	.	.	.	.	4.e\	a-	.	.	.	.	.	.	.	.	.	.	.	.
(16d\LL	.	16d\LL	.	.	.	.	.	.	.	16d\LL	.	.	.	.	.	.	.	.	.	.	.	.	.
16e\JJ)	.	16e\JJ	.	.	.	.	.	.	.	16e\JJ	.	.	.	.	.	.	.	.	.	.	.	.	.
8f#|\L	.	8f#\L	.	.	.	.	.	.	.	8f#\L	.	.	.	.	.	.	.	.	.	.	.	.	.
(16g\L	.	16g\L	.	.	.	.	.	.	.	16g\L	.	.	.	.	.	.	.	.	.	.	.	.	.
16f#\JJ)	.	16f#\JJ	.	.	.	.	.	.	.	16f#\JJ	.	.	.	.	.	.	.	.	.	.	.	.	.
8e|\L	.	8e\L	.	.	.	.	.	.	.	8e\L	.	.	.	.	.	.	.	.	.	.	.	.	.
8f#|\J	.	8f#\J	.	.	.	.	.	.	.	8f#\J	.	.	.	.	.	.	.	.	.	.	.	.	.
=17	=17	=17	=17	=17	=17	=17	=17	=17	=17	=17	=17	=17	=17	=17	=17	=17	=17	=17	=17	=17	=17	=17	=17
8g#X|\L	.	8g#X\L	.	.	.	.	.	.	.	8g#X\L	.	.	.	.	.	.	.	.	.	.	.	.	.
8e|\J	.	8e\J	.	.	.	.	.	.	.	8e\J	.	.	.	.	.	.	.	.	.	.	.	.	.
2a|\	.	2a\	.	.	.	.	.	.	.	2a\	.	.	.	.	.	.	.	.	.	.	.	.	.
4g#|\	.	4g#\	.	.	.	.	.	.	.	4g#\	.	.	.	.	.	.	.	.	.	.	.	.	.
!	!	!LO:LB:g=original	!	!	!	!	!	!	!	!	!	!	!	!	!	!	!	!	!	!	!	!	!
=18	=18	=18	=18	=18	=18	=18	=18	=18	=18	=18	=18	=18	=18	=18	=18	=18	=18	=18	=18	=18	=18	=18	=18
*^	*	*	*	*	*	*	*	*	*	*	*	*	*	*	*	*	*	*	*	*	*	*	*
!	!	!	!LO:TX:t=P:problem=mixed beam	!	!	!	!	!	!	!	!	!	!	!	!	!	!	!	!	!	!	!	!	!
2.a/	8a|>\L	.	8a\L	.	2.a/	.	00r	.	00r	.	8a\L	.	2.a\	A-	00r	.	1r	.	00r	00r	00r	00r	00r	00r
.	8A\	.	8A/	.	.	.	.	.	.	.	8A\	.	.	.	.	.	.	.	.	.	.	.	.	.
.	8B\	.	8B/	.	.	.	.	.	.	.	8B\	.	.	.	.	.	.	.	.	.	.	.	.	.
.	8c#\J	.	8c#/J	.	.	.	.	.	.	.	8c#\J	.	.	.	.	.	.	.	.	.	.	.	.	.
.	8d\L	.	8d\L	.	.	.	.	.	.	.	8d\L	.	.	.	.	.	.	.	.	.	.	.	.	.
.	8B\	.	8B\	.	.	.	.	.	.	.	8B\	.	.	.	.	.	.	.	.	.	.	.	.	.
4g#X/	8e\	.	8e\	.	4g#X/	.	.	.	.	.	8e\	.	4g#X\	.	.	.	.	.	.	.	.	.	.	.
.	8d\J	.	8d\J	.	.	.	.	.	.	.	8d\J	.	.	.	.	.	.	.	.	.	.	.	.	.
=19	=19	=19	=19	=19	=19	=19	=19	=19	=19	=19	=19	=19	=19	=19	=19	=19	=19	=19	=19	=19	=19	=19	=19	=19
4.a/	8c#\L	.	8c#/L	.	4.a/	.	.	.	.	.	8c#\L	.	4.a\	.	.	.	1r	.	.	.	.	.	.	.
.	8B\	.	8B/	.	.	.	.	.	.	.	8B\	.	.	.	.	.	.	.	.	.	.	.	.	.
.	8A\	.	8A/	.	.	.	.	.	.	.	8A\	.	.	.	.	.	.	.	.	.	.	.	.	.
8b/	8G#X\J	.	8G#X/J	.	8b/	.	.	.	.	.	8G#X\J	.	8b\	.	.	.	.	.	.	.	.	.	.	.
8cc#/L	4.A\	.	4.A/	.	8cc#/L	.	.	.	.	.	4.A\	.	8cc#\L	.	.	.	.	.	.	.	.	.	.	.
8b/J	.	.	.	.	8b/J	.	.	.	.	.	.	.	8b\J	.	.	.	.	.	.	.	.	.	.	.
4a/	.	.	.	.	4a/	.	.	.	.	.	.	.	4a\	-men	.	.	.	.	.	.	.	.	.	.
.	8c#\	.	8c#\	.	.	.	.	.	.	.	8c#\	.	.	.	.	.	.	.	.	.	.	.	.	.
!LO:LB:g=original	!	!	!	!	!	!	!	!	!	!	!LO:LB:g=original	!	!	!	!	!	!	!	!	!	!	!	!	!
=20	=20	=20	=20	=20	=20	=20	=20	=20	=20	=20	=20	=20	=20	=20	=20	=20	=20	=20	=20	=20	=20	=20	=20	=20
4.b/	4d\	.	4d\	.	4.b\	.	.	.	.	.	4d\	.	2b\	a-	.	.	1r	.	.	.	.	.	.	.
.	4e\	.	4e\	.	.	.	.	.	.	.	4e\	.	.	.	.	.	.	.	.	.	.	.	.	.
16a/LL	.	.	.	.	16a\LL	.	.	.	.	.	.	.	.	.	.	.	.	.	.	.	.	.	.	.
16b/JJ	.	.	.	.	16b\JJ	.	.	.	.	.	.	.	.	.	.	.	.	.	.	.	.	.	.	.
8cc#/L	4a\	.	4a\	.	8cc#\L	.	.	.	.	.	4a\	.	4cc#\	.	.	.	.	.	.	.	.	.	.	.
16dd/L	.	.	.	.	16dd\L	.	.	.	.	.	.	.	.	.	.	.	.	.	.	.	.	.	.	.
16cc#/JJ	.	.	.	.	16cc#\JJ	.	.	.	.	.	.	.	.	.	.	.	.	.	.	.	.	.	.	.
8b/L	4gn\	.	4gn\	.	8b\L	.	.	.	.	.	4gn\	.	8b\L	.	.	.	.	.	.	.	.	.	.	.
8cc#/J	.	.	.	.	8cc#\J	.	.	.	.	.	.	.	8cc#\J	.	.	.	.	.	.	.	.	.	.	.
=21	=21	=21	=21	=21	=21	=21	=21	=21	=21	=21	=21	=21	=21	=21	=21	=21	=21	=21	=21	=21	=21	=21	=21	=21
8dd/L	4f#\	.	4f#\	.	8dd\L	.	.	.	.	.	4f#\	.	8dd\L	.	.	.	1r	.	.	.	.	.	.	.
8a/J	.	.	.	.	8a\J	.	.	.	.	.	.	.	8a\J	.	.	.	.	.	.	.	.	.	.	.
2dd/	8g\L	.	8g\L	.	2dd\	.	.	.	.	.	8g\L	.	2dd\	.	.	.	.	.	.	.	.	.	.	.
.	8f#\J	.	8f#\J	.	.	.	.	.	.	.	8f#\J	.	.	.	.	.	.	.	.	.	.	.	.	.
.	2e\	.	2e\	.	.	.	.	.	.	.	2e\	.	.	.	.	.	.	.	.	.	.	.	.	.
4cc#/	.	.	.	.	4cc#\	.	.	.	.	.	.	.	4cc#\	.	.	.	.	.	.	.	.	.	.	.
=22	=22	=22	=22	=22	=22	=22	=22	=22	=22	=22	=22	=22	=22	=22	=22	=22	=22	=22	=22	=22	=22	=22	=22	=22
!LO:MO:mod=*null:null	!	!	!	!	!	!	!	!	!	!	!	!	!	!	!	!	!	!	!	!	!	!	!	!
*clefC1	*	*	*	*	*	*	*	*	*	*	*	*	*	*	*	*	*	*	*	*	*	*	*	*
!	!	!	!	!	!LO:TX:t=P:problem=mixed beam	!	!	!	!	!	!	!	!	!	!	!	!	!	!	!	!	!	!	!
2.dd/	8r	.	4d\	.	8dd\L	.	2.dd\	.	00r	.	4d\	-men	8dd\L	.	2.dd\	A-	1r	.	00r	00r	00r	00r	00r	00r
.	8d\L	.	.	.	8d/	.	.	.	.	.	.	.	8d\	.	.	.	.	.	.	.	.	.	.	.
.	8e\	.	4r	.	8e/	.	.	.	.	.	4r	.	8e\	.	.	.	.	.	.	.	.	.	.	.
.	8f#\J	.	.	.	8f#/J	.	.	.	.	.	.	.	8f#\J	.	.	.	.	.	.	.	.	.	.	.
.	8g\L	.	2r	.	8g/L	.	.	.	.	.	2r	.	8g\L	.	.	.	.	.	.	.	.	.	.	.
.	8e\	.	.	.	8e/	.	.	.	.	.	.	.	8e\	.	.	.	.	.	.	.	.	.	.	.
4cc#/	8a\	.	.	.	8a/	.	4cc#\	.	.	.	.	.	8a\	.	4cc#\	.	.	.	.	.	.	.	.	.
.	8g\J	.	.	.	8g/J	.	.	.	.	.	.	.	8g\J	.	.	.	.	.	.	.	.	.	.	.
!	!	!	!	!	!	!	!	!	!	!	!	!	!LO:LB:g=original	!	!	!	!	!	!	!	!	!	!	!
=23	=23	=23	=23	=23	=23	=23	=23	=23	=23	=23	=23	=23	=23	=23	=23	=23	=23	=23	=23	=23	=23	=23	=23	=23
4.dd/	8f#\L	.	0r	.	8f#/L	.	4.dd\	.	.	.	0r	.	8f#\L	.	4.dd\	.	1r	.	.	.	.	.	.	.
.	8e\	.	.	.	8e/	.	.	.	.	.	.	.	8e\	.	.	.	.	.	.	.	.	.	.	.
.	8d\	.	.	.	8d/	.	.	.	.	.	.	.	8d\	.	.	.	.	.	.	.	.	.	.	.
8ee/	8c#\J	.	.	.	8c#/J	.	8ee\	.	.	.	.	.	8c#\J	.	8ee\	.	.	.	.	.	.	.	.	.
8ff#/L	4.d\	.	.	.	4.d/	.	8ff#\L	.	.	.	.	.	4.d\	.	8ff#\L	.	.	.	.	.	.	.	.	.
8ee/J	.	.	.	.	.	.	8ee\J	.	.	.	.	.	.	.	8ee\J	.	.	.	.	.	.	.	.	.
4dd/	.	.	.	.	.	.	4dd\	.	.	.	.	.	.	.	4dd\	-men	.	.	.	.	.	.	.	.
.	8f#\	.	.	.	8f#/	.	.	.	.	.	.	.	8f#\	.	.	.	.	.	.	.	.	.	.	.
!	!	!	!	!	!LO:LB:g=original	!	!	!	!	!	!	!	!	!	!	!	!	!	!	!	!	!	!	!
=24	=24	=24	=24	=24	=24	=24	=24	=24	=24	=24	=24	=24	=24	=24	=24	=24	=24	=24	=24	=24	=24	=24	=24	=24
4.ee/	4g\	.	.	.	4g/	.	4.ee\	.	.	.	.	.	4g\	.	2ee\	a-	1r	.	.	.	.	.	.	.
.	4a\	.	.	.	4a/	.	.	.	.	.	.	.	4a\	.	.	.	.	.	.	.	.	.	.	.
16dd/LL	.	.	.	.	.	.	16dd\LL	.	.	.	.	.	.	.	.	.	.	.	.	.	.	.	.	.
16ee/JJ	.	.	.	.	.	.	16ee\JJ	.	.	.	.	.	.	.	.	.	.	.	.	.	.	.	.	.
8ff#/L	4d\	.	.	.	4d/	.	8ff#\L	.	.	.	.	.	4d\	-men	4ff#\	.	.	.	.	.	.	.	.	.
16gg/L	.	.	.	.	.	.	16gg\L	.	.	.	.	.	.	.	.	.	.	.	.	.	.	.	.	.
16ff#/JJ	.	.	.	.	.	.	16ff#\JJ	.	.	.	.	.	.	.	.	.	.	.	.	.	.	.	.	.
8ee/L	4dd\	.	.	.	4dd\	.	8ee\L	.	.	.	.	.	4dd\	a-	8ee\L	.	.	.	.	.	.	.	.	.
8ff#/J	.	.	.	.	.	.	8ff#\J	.	.	.	.	.	.	.	8ff#\J	.	.	.	.	.	.	.	.	.
=25	=25	=25	=25	=25	=25	=25	=25	=25	=25	=25	=25	=25	=25	=25	=25	=25	=25	=25	=25	=25	=25	=25	=25	=25
8gg#X/L	4dd\	.	1r	.	4dd\	.	8gg#X\L	.	.	.	1r	.	4dd\	.	8gg#X\L	.	1r	.	.	.	.	.	.	.
8ee/J	.	.	.	.	.	.	8ee\J	.	.	.	.	.	.	.	8ee\J	.	.	.	.	.	.	.	.	.
2aa/	4cc#\	.	.	.	4cc#\	.	2aa\	.	.	.	.	.	4cc#\	.	2aa\	.	.	.	.	.	.	.	.	.
.	2b\	.	.	.	2b\	.	.	.	.	.	.	.	2b\	.	.	.	.	.	.	.	.	.	.	.
4gg#/	.	.	.	.	.	.	4gg#\	.	.	.	.	.	.	.	4gg#\	.	.	.	.	.	.	.	.	.
*v	*v	*	*	*	*	*	*	*	*	*	*	*	*	*	*	*	*	*	*	*	*	*	*	*
!LO:MO:mod=*clefF4	!	!	!	!	!	!	!	!	!	!	!	!	!	!	!	!	!	!	!	!	!	!	!
*null	*	*	*	*	*	*	*	*	*	*	*	*	*	*	*	*	*	*	*	*	*	*	*
!LO:LB:g=original	!	!	!	!	!	!	!	!	!	!	!	!	!	!	!	!	!	!	!	!	!	!	!
=26	=26	=26	=26	=26	=26	=26	=26	=26	=26	=26	=26	=26	=26	=26	=26	=26	=26	=26	=26	=26	=26	=26	=26
!LO:MO:mod=*null:null	!	!	!	!	!	!	!	!	!	!	!	!	!	!	!	!	!	!	!	!	!	!	!
*clefF4	*	*	*	*	*	*	*	*	*	*	*	*	*	*	*	*tremolo	*	*	*	*	*	*	*
!	!	!	!	!	!	!LO:TX:t=P:problem=mixed beam	!	!	!	!	!	!	!	!	!	!	!	!	!	!LO:SIC:o=2.a\	!	!	!
2.A\	3	2c#/	.	4a/	.	8aa\L	.	2.A\	A-	2c#\	a-	4a\	-men	8aa\L	.	16AA/LL	.	2A/	2e\	(2.a	2cc#\	(2.a/	2cc#\
.	.	.	.	.	.	.	.	.	.	.	.	.	.	.	.	16AA/	.	.	.	.	.	.	.
.	.	.	.	.	.	8a/	.	.	.	.	.	.	.	8a\	.	16AA/	.	.	.	.	.	.	.
.	.	.	.	.	.	.	.	.	.	.	.	.	.	.	.	16AA/	.	.	.	.	.	.	.
.	.	.	.	4r	.	8b/	.	.	.	.	.	4r	.	8b\	.	16AA/	.	.	.	.	.	.	.
.	.	.	.	.	.	.	.	.	.	.	.	.	.	.	.	16AA/	.	.	.	.	.	.	.
.	.	.	.	.	.	8cc#/J	.	.	.	.	.	.	.	8cc#\J	.	16AA/	.	.	.	.	.	.	.
.	.	.	.	.	.	.	.	.	.	.	.	.	.	.	.	16AA/JJ	.	.	.	.	.	.	.
*	*	*	*	*	*	*	*	*	*	*	*	*	*	*	*	*Xtremolo	*	*	*	*	*	*	*
.	4 2	2B/	.	2r	.	8dd\L	.	.	.	2B\	.	2r	.	8dd\L	.	4D\	.	4d\	4f#\	.	2b\	.	2b\
.	.	.	.	.	.	8b\	.	.	.	.	.	.	.	8b\	.	.	.	.	.	.	.	.	.
!	!	!	!	!	!	!	!	!	!	!	!	!	!	!	!	!	!	!	!	!LO:SIC:o=4g#\	!	!	!
4G#X\	6 5	.	.	.	.	8ee\	.	4G#X\	.	.	.	.	.	8ee\	.	4AA/	.	4e\	4e\	4g#)	.	4g#X/)	.
.	.	.	.	.	.	8dd\J	.	.	.	.	.	.	.	8dd\J	.	.	.	.	.	.	.	.	.
!	!	!LO:LB:g=original	!	!	!	!	!	!	!	!	!	!	!	!LO:LB:g=original	!	!	!	!	!	!	!	!	!
=27	=27	=27	=27	=27	=27	=27	=27	=27	=27	=27	=27	=27	=27	=27	=27	=27	=27	=27	=27	=27	=27	=27	=27
4.A\	.	4.c#\	.	1r	.	8cc#/L	.	4.A\	.	4.c#\	.	1r	.	8cc#\L	.	4AA/	.	4A/	2e\	4.a\	4.cc#\	4.a/	4.cc#\
.	.	.	.	.	.	8b/	.	.	.	.	.	.	.	8b\	.	.	.	.	.	.	.	.	.
.	.	.	.	.	.	8a/	.	.	.	.	.	.	.	8a\	.	4AA/	.	4e\	.	.	.	.	.
8B\	6\	8d\	.	.	.	8g#X/J	.	8B\	.	8d\	.	.	.	8g#X\J	.	.	.	.	.	8b\	8dd\	8b/	8dd\
*	*	*	*	*	*	*	*	*	*	*	*	*	*	*	*	*tremolo	*	*	*	*	*	*	*
!	!	!	!	!	!	!LO:LB:g=original	!	!	!	!	!	!	!	!	!	!	!	!	!	!	!	!	!
8c#\L	6	8e\L	.	.	.	4.a/	.	8c#\L	.	8e\L	.	.	.	4.a\	.	16AA/LL	.	2A/	2e\	8cc#\L	8ee\L	8cc#/L	8ee\L
.	.	.	.	.	.	.	.	.	.	.	.	.	.	.	.	16AA/	.	.	.	.	.	.	.
8B\J	.	8d\	.	.	.	.	.	8B\J	.	8d\	.	.	.	.	.	16AA/	.	.	.	8b\J	8dd\J	8b/J	8dd\J
.	.	.	.	.	.	.	.	.	.	.	.	.	.	.	.	16AA/	.	.	.	.	.	.	.
4A\	.	8c#\	.	.	.	.	.	4A\	-men	8c#\	.	.	.	.	.	16AA/	.	.	.	4a\	4cc#\	4a/	4cc#\
.	.	.	.	.	.	.	.	.	.	.	.	.	.	.	.	16AA/	.	.	.	.	.	.	.
.	.	8e\J	.	.	.	8cc#\	.	.	.	8e\J	.	.	.	8cc#\	.	16AA/	.	.	.	.	.	.	.
.	.	.	.	.	.	.	.	.	.	.	.	.	.	.	.	16AA/JJ	.	.	.	.	.	.	.
*	*	*	*	*	*	*	*	*	*	*	*	*	*	*	*	*Xtremolo	*	*	*	*	*	*	*
=28	=28	=28	=28	=28	=28	=28	=28	=28	=28	=28	=28	=28	=28	=28	=28	=28	=28	=28	=28	=28	=28	=28	=28
2B\	5	4f#\	.	2r	.	4dd\	.	2B\	a-	4f#\	.	2r	.	4dd\	.	4D\	.	4d\	4f#\	4b\	4dd\	4b/	4dd\
.	6\	4g#X\	.	.	.	4ee\	.	.	.	4g#X\	.	.	.	4ee\	.	4AA/	.	4e\	4e\	4g#\	4b\	4g#X/	4b\
4c#\	6	4a\	.	4r	.	4aa\	.	4c#\	.	4a\	.	4r	.	4aa\	.	4AA/	.	4A/	4e\	4a\	4cc#\	4a/	4cc#\
!	!	!	!	!	!	!LO:SIC:o=4ggn\	!	!	!	!	!	!	!	!LO:SIC:o=4ggn\	!	!	!	!	!	!	!	!	!
8B\L	.	4e\	.	[4a/	.	4gg	.	8B\L	.	4e\	.	4a\	a-	4gg	.	4AA/	.	4A/	4e\	4r	4r	4r	4r
8c#\J	6 n5r	.	.	.	.	.	.	8c#\J	.	.	.	.	.	.	.	.	.	.	.	.	.	.	.
=29	=29	=29	=29	=29	=29	=29	=29	=29	=29	=29	=29	=29	=29	=29	=29	=29	=29	=29	=29	=29	=29	=29	=29
*	*	*	*	*	*	*	*	*	*	*	*	*	*	*	*	*tremolo	*	*	*	*	*	*	*
8d\L	3	2d\	.	4a/]	.	4ff#\	.	8d\L	.	2d\	.	4a\	.	4ff#\	.	16D\LL	.	2d\	2f#\	1r	1r	1r	1r
.	.	.	.	.	.	.	.	.	.	.	.	.	.	.	.	16D\	.	.	.	.	.	.	.
8A\J	.	.	.	.	.	.	.	8A\J	.	.	.	.	.	.	.	16D\	.	.	.	.	.	.	.
.	.	.	.	.	.	.	.	.	.	.	.	.	.	.	.	16D\	.	.	.	.	.	.	.
2d\	3	.	.	8b/L	.	8gg\L	.	2d\	.	.	.	8b\L	.	8gg\L	.	16D\	.	.	.	.	.	.	.
.	.	.	.	.	.	.	.	.	.	.	.	.	.	.	.	16D\	.	.	.	.	.	.	.
.	4 2	.	.	8a/J	.	8ff#\J	.	.	.	.	.	8a\J	.	8ff#\J	.	16D\	.	.	.	.	.	.	.
.	.	.	.	.	.	.	.	.	.	.	.	.	.	.	.	16D\JJ	.	.	.	.	.	.	.
*	*	*	*	*	*	*	*	*	*	*	*	*	*	*	*	*Xtremolo	*	*	*	*	*	*	*
.	.	4B/	.	8g/L	.	2ee\	.	.	.	4B\	.	8g\L	.	2ee\	.	4D\	.	4d\	2e\	.	.	.	.
.	.	.	.	8e/	.	.	.	.	.	.	.	8e\	.	.	.	.	.	.	.	.	.	.	.
4c#\	6 5	4A/	.	8a/	.	.	.	4c#\	.	4A\	.	8a\	.	.	.	4AA/	.	4A/	.	.	.	.	.
.	.	.	.	8g/J	.	.	.	.	.	.	.	8g\J	.	.	.	.	.	.	.	.	.	.	.
!	!	!	!	!	!	!	!	!	!	!LO:LB:g=original	!	!	!	!	!	!	!	!	!	!	!	!	!
=30	=30	=30	=30	=30	=30	=30	=30	=30	=30	=30	=30	=30	=30	=30	=30	=30	=30	=30	=30	=30	=30	=30	=30
8d\L	.	2A/	.	2f#/	.	2dd\	.	8d\L	.	2A\	-men	2f#\	-men	2dd\	-men	4D\	.	4F#/	4d\	4r	4r	4r	4r
8D\	.	.	.	.	.	.	.	8D\	.	.	.	.	.	.	.	.	.	.	.	.	.	.	.
8E\	.	.	.	.	.	.	.	8E\	.	.	.	.	.	.	.	4r	.	4r	4r	4dd\	4aa\	4dd\	4aa\
8F#\J	.	.	.	.	.	.	.	8F#\J	.	.	.	.	.	.	.	.	.	.	.	.	.	.	.
[<2G\	6	2B/	.	8g/L	.	8ee\L	.	[2G\	.	2B\	a-	8g\L	a-	8ee\L	a-	2r	.	2r	2r	4ee\	2bb\	4ee\	2bb\
.	.	.	.	8a/	.	8ff#\	.	.	.	.	.	8a\	.	8ff#\	.	.	.	.	.	.	.	.	.
.	5	.	.	8g/	.	8ee\	.	.	.	.	.	8g\	.	8ee\	.	.	.	.	.	4dd\	.	4dd\	.
.	.	.	.	8f#/J	.	8dd\J	.	.	.	.	.	8f#\J	.	8dd\J	.	.	.	.	.	.	.	.	.
!	!	!	!	!	!	!	!	!LO:LB:g=original	!	!	!	!LO:LB:g=original	!	!	!	!	!	!	!	!	!	!	!
=31	=31	=31	=31	=31	=31	=31	=31	=31	=31	=31	=31	=31	=31	=31	=31	=31	=31	=31	=31	=31	=31	=31	=31
!	!	!	!	!	!	!	!	!LO:TX:a:t=P:problem=brak zakończenia ligatury	!	!	!	!	!	!	!	!LO:TX:a:t=4.:mod=	!	!	!	!	!	!	!
8G\L]	4_ 2_	1A	.	2e/	.	2cc#\	.	8G\L]	.	1A	.	2e\	.	2cc#\	.	00r	.	00r	00r	2cc#\	1aa	2cc#\	1aa
8C#\	.	.	.	.	.	.	.	8C#\	.	.	.	.	.	.	.	.	.	.	.	.	.	.	.
8D\	X	.	.	.	.	.	.	8D\	.	.	.	.	.	.	.	.	.	.	.	.	.	.	.
8E\J	.	.	.	.	.	.	.	8E\J	.	.	.	.	.	.	.	.	.	.	.	.	.	.	.
[<2F#\	6	.	.	8f#/L	.	8dd\L	.	[2F#\	.	.	.	8f#\L	.	8dd\L	.	.	.	.	.	4dd\	.	4dd\	.
.	.	.	.	8g/	.	8ee\	.	.	.	.	.	8g\	.	8ee\	.	.	.	.	.	.	.	.	.
.	5	.	.	8f#/	.	8dd\	.	.	.	.	.	8f#\	.	8dd\	.	.	.	.	.	4cc#\	.	4cc#\	.
.	.	.	.	8e/J	.	8cc#\J	.	.	.	.	.	8e\J	.	8cc#\J	.	.	.	.	.	.	.	.	.
!	!	!	!	!	!	!	!	!	!	!	!	!	!	!	!	!	!	!	!	!LO:LB:g=original	!	!	!
=32	=32	=32	=32	=32	=32	=32	=32	=32	=32	=32	=32	=32	=32	=32	=32	=32	=32	=32	=32	=32	=32	=32	=32
!	!	!	!	!	!	!	!	!LO:TX:t=P:problem=mixed beam	!	!	!	!	!	!	!	!	!	!	!	!	!	!	!
8F#\L]	4_ 2_	1G	.	2d/	.	2b\	.	8F#\L]	.	1G	.	2d\	.	2b\	.	.	.	.	.	2b\	1gg	2b\	1gg
8BB\	.	.	.	.	.	.	.	8BB/	.	.	.	.	.	.	.	.	.	.	.	.	.	.	.
8C#\	X	.	.	.	.	.	.	8C#/	.	.	.	.	.	.	.	.	.	.	.	.	.	.	.
8D\J	.	.	.	.	.	.	.	8D/J	.	.	.	.	.	.	.	.	.	.	.	.	.	.	.
!	!	!	!	!LO:LB:g=original	!	!	!	!	!	!	!	!	!	!	!	!	!	!	!	!	!	!	!
[<2E\	6	.	.	8e/L	.	8cc#\L	.	[2E\	.	.	.	8e\L	.	8cc#\L	.	.	.	.	.	4cc#\	.	4cc#\	.
.	.	.	.	8f#/	.	8dd\	.	.	.	.	.	8f#\	.	8dd\	.	.	.	.	.	.	.	.	.
.	5	.	.	8e/	.	8cc#\	.	.	.	.	.	8e\	.	8cc#\	.	.	.	.	.	4b\	.	4b\	.
.	.	.	.	8d/J	.	8b\J	.	.	.	.	.	8d\J	.	8b\J	.	.	.	.	.	.	.	.	.
!LO:LB:g=original	!	!	!	!	!	!	!	!	!	!	!	!	!	!LO:LB:g=original	!	!	!	!	!	!	!	!	!
=33	=33	=33	=33	=33	=33	=33	=33	=33	=33	=33	=33	=33	=33	=33	=33	=33	=33	=33	=33	=33	=33	=33	=33
!LO:TX:a:t=P:problem=brak zakończenia ligatury	!	!	!	!	!	!	!	!LO:TX:t=P:problem=mixed beam	!	!	!	!	!	!	!	!	!	!	!	!	!	!	!
8E\L]	4_ 2_	1F#	.	2c#/	.	2a/	.	8E\L]	.	1F#	.	2c#\	.	2a\	.	.	.	.	.	2a\	1ff#	2a/	1ff#
8AA\	.	.	.	.	.	.	.	8AA/	.	.	.	.	.	.	.	.	.	.	.	.	.	.	.
8BB\	X	.	.	.	.	.	.	8BB/	.	.	.	.	.	.	.	.	.	.	.	.	.	.	.
8C#\J	.	.	.	.	.	.	.	8C#/J	.	.	.	.	.	.	.	.	.	.	.	.	.	.	.
[<2D\	6	.	.	8d/L	.	8b/L	.	[2D\	.	.	.	8d\L	.	8b\L	.	.	.	.	.	4b\	.	4b/	.
.	.	.	.	8e/	.	8cc#/	.	.	.	.	.	8e\	.	8cc#\	.	.	.	.	.	.	.	.	.
.	5	.	.	8d/	.	8b/	.	.	.	.	.	8d\	.	8b\	.	.	.	.	.	4a\	.	4a/	.
.	.	.	.	8c#/J	.	8a/J	.	.	.	.	.	8c#\J	.	8a\J	.	.	.	.	.	.	.	.	.
!	!	!	!	!	!	!	!	!	!	!	!	!	!	!	!	!	!	!	!	!	!LO:LB:g=original	!LO:LB:g=original	!
=34	=34	=34	=34	=34	=34	=34	=34	=34	=34	=34	=34	=34	=34	=34	=34	=34	=34	=34	=34	=34	=34	=34	=34
4D\]	r#4 2	2E/	.	4B/	.	4g#X/	.	4D\]	.	2E/	.	4B/	.	4g#X\	.	.	.	.	.	4b\	4gg#\	4b\	4gg#X\
4C#/	6	.	.	4c#/	.	2a/	.	4C#/	.	.	.	4c#\	.	2a\	.	.	.	.	.	4cc#\	2aa\	4cc#\	2aa\
2BB/	7	4F#/	.	2d/	.	.	.	2BB/	.	4F#/	.	2d\	.	.	.	.	.	.	.	2dd\	.	2dd\	.
.	6\	4E/	.	.	.	4g#/	.	.	.	4E/	.	.	.	4g#\	.	.	.	.	.	.	4gg#\	.	4gg#\
!	!	!	!	!	!	!LO:LB:g=original	!	!	!	!	!	!	!	!	!	!	!	!	!	!	!	!	!
=35	=35	=35	=35	=35	=35	=35	=35	=35	=35	=35	=35	=35	=35	=35	=35	=35	=35	=35	=35	=35	=35	=35	=35
!	!	!	!	!	!	!	!	!LO:TX:t=P:problem=mixed beam	!	!	!	!	!	!	!	!	!	!	!	!	!	!	!
4AA/	.	4E/	.	4c#/	.	4a/	.	8AA/L	.	4E/	-men	4c#\	-men	4a\	-men	4r	.	4r	4r	2cc#\	2.aa\	2cc#\	2.aa\
.	.	.	.	.	.	.	.	8A\	.	.	.	.	.	.	.	.	.	.	.	.	.	.	.
8BB/L	.	4e\	.	2a/	.	4cc#/	.	8B\	.	4e\	a-	2a\	a-	4cc#\	a-	4AA/	.	4A/	4e\	.	.	.	.
8C#/J	.	.	.	.	.	.	.	8c#\J	.	.	.	.	.	.	.	.	.	.	.	.	.	.	.
8D/L	6 5	4f#\	.	.	.	2b/	.	8d\L	.	4f#\	.	.	.	2b\	.	4D\	.	4d\	4f#\	2b\	.	2b\	.
8BB/	.	.	.	.	.	.	.	8B\	.	.	.	.	.	.	.	.	.	.	.	.	.	.	.
8E/	#	4e\	.	4g#X/	.	.	.	8e\	.	4e\	.	4g#X\	.	.	.	4AA/	.	4e\	4e\	.	4gg#\	.	4gg#X\
8D/J	.	.	.	.	.	.	.	8d\J	.	.	.	.	.	.	.	.	.	.	.	.	.	.	.
!	!	!	!	!	!	!	!	!	!	!	!	!	!	!	!	!	!	!	!	!	!	!	!LO:LB:g=original
=36	=36	=36	=36	=36	=36	=36	=36	=36	=36	=36	=36	=36	=36	=36	=36	=36	=36	=36	=36	=36	=36	=36	=36
8C#/L	x 6_	2e\	.	4.a/	.	4.cc#\	.	8c#\L	.	2e\	-men	4.a\	.	4.cc#\	.	4AA/	.	4A/	2e\	4.cc#\	4.aa\	4.cc#\	4.aa\
8BB/	.	.	.	.	.	.	.	8B\	.	.	.	.	.	.	.	.	.	.	.	.	.	.	.
8AA/	.	.	.	.	.	.	.	8A\	.	.	.	.	.	.	.	4AA/	.	4e\	.	.	.	.	.
8GG#X/J	6 5	.	.	8b/	.	8dd\	.	8G#X\J	.	.	.	8b\	.	8dd\	.	.	.	.	.	8dd\	8bb\	8dd\	8bb\
*	*	*	*	*	*	*	*	*	*	*	*ij	*	*	*	*	*tremolo	*	*	*	*	*	*	*
4.AA/	.	2e\	.	8cc#/L	.	8ee\L	.	4.A\	.	2e\	a-	8cc#\L	.	8ee\L	.	16AA/LL	.	2A/	4e\	4cc#\	4aa\	4cc#\	4aa\
.	.	.	.	.	.	.	.	.	.	.	.	.	.	.	.	16AA/	.	.	.	.	.	.	.
.	.	.	.	8b/J	.	8dd\J	.	.	.	.	.	8b\J	.	8dd\J	.	16AA/	.	.	.	.	.	.	.
.	.	.	.	.	.	.	.	.	.	.	.	.	.	.	.	16AA/	.	.	.	.	.	.	.
.	.	.	.	4a/	.	4cc#\	.	.	.	.	.	4a\	.	4cc#\	.	16AA/	.	.	4a\	4cc#\	4aa\	4cc#\	4aa\
.	.	.	.	.	.	.	.	.	.	.	.	.	.	.	.	16AA/	.	.	.	.	.	.	.
8C#/	6	.	.	.	.	.	.	8c#\	.	.	.	.	.	.	.	16AA/	.	.	.	.	.	.	.
.	.	.	.	.	.	.	.	.	.	.	.	.	.	.	.	16AA/JJ	.	.	.	.	.	.	.
*	*	*	*	*	*	*	*	*	*	*	*	*	*	*	*	*Xtremolo	*	*	*	*	*	*	*
!	!	!LO:LB:g=original	!	!	!	!	!	!LO:LB:g=original	!	!	!	!	!	!	!	!LO:LB:g=original	!	!	!	!	!	!	!
=37	=37	=37	=37	=37	=37	=37	=37	=37	=37	=37	=37	=37	=37	=37	=37	=37	=37	=37	=37	=37	=37	=37	=37
8D\L	r#4_ 2_	4e\	.	4g#X/	.	4b\	.	4d\	.	4e\	-men	4g#X\	.	4b\	.	4AA/	.	4e\	4g#X\	4b\	4gg#\	4b\	4gg#X\
*	*	*	*	*	*	*	*	*	*	*	*Xij	*	*	*	*	*	*	*	*	*	*	*	*
16E\L	.	.	.	.	.	.	.	.	.	.	.	.	.	.	.	.	.	.	.	.	.	.	.
16D\JJ	x	.	.	.	.	.	.	.	.	.	.	.	.	.	.	.	.	.	.	.	.	.	.
8C#/L	6	4e\	.	2a/	.	4cc#\	.	8c#\L	.	4e\	a-	2a\	.	4cc#\	.	4AA/	.	4A/	4a\	4cc#\	2aa\	4cc#\	2aa\
8AA/J	.	.	.	.	.	.	.	8A\J	.	.	.	.	.	.	.	.	.	.	.	.	.	.	.
!LO:TX:t=P:problem=mixed beam	!	!	!	!	!	!	!	!	!	!	!	!	!	!	!	!	!LO:LB:g=original	!LO:LB:g=original	!	!	!	!	!
8D\L	6 5	4f#\	.	.	.	2b\	.	8d\L	.	4f#\	.	.	.	2b\	.	4D\	.	4f#\	4a\	2b\	.	2b\	.
8BB\	.	.	.	.	.	.	.	8B\	.	.	.	.	.	.	.	.	.	.	.	.	.	.	.
!	!	!	!	!	!	!	!	!	!	!	!	!	!	!	!	!	!	!	!LO:SIC:o=4g#X\	!	!	!	!
8E\	#	4e\	.	4g#/	.	.	.	8e\	.	4e\	.	4g#\	.	.	.	4AA/	.	4e\	4g#	.	4gg#\	.	4gg#\
8EE/J	.	.	.	.	.	.	.	8E\J	.	.	.	.	.	.	.	.	.	.	.	.	.	.	.
!	!	!	!	!	!	!	!	!	!	!	!	!LO:LB:g=original	!	!	!	!	!	!	!	!	!	!	!
=38	=38	=38	=38	=38	=38	=38	=38	=38	=38	=38	=38	=38	=38	=38	=38	=38	=38	=38	=38	=38	=38	=38	=38
!	!	!	!	!LO:MO:mod=!LO&colon;TX&colon;a&colon;i&colon;t=Solo	!	!	!	!	!	!	!	!	!	!	!	!	!	!	!	!	!	!	!
!	!	!	!	!LO:TX:a:i:t=Solo&colon;	!	!	!	!	!	!	!	!	!	!	!	!	!	!	!	!	!	!	!
4AA/	.	4e\	.	8a/L	.	4cc#\	.	4A\	-men	4e\	-men	4a\	-men	4cc#\	-men	4AA/	.	4A/	4a\	4cc#\	4aa\	4cc#\	4aa\
.	.	.	.	8A/	.	.	.	.	.	.	.	.	.	.	.	.	.	.	.	.	.	.	.
4r	.	4r	.	8B/	.	2a/	.	4r	.	4r	.	4r	.	4r	.	4r	.	4r	4r	4r	4r	4r	4r
.	.	.	.	8c#/J	.	.	.	.	.	.	.	.	.	.	.	.	.	.	.	.	.	.	.
2r	.	2r	.	8d/L	.	.	.	2r	.	2r	.	2r	.	2r	.	2r	.	2r	2r	2r	2r	2r	2r
.	.	.	.	8B/	.	.	.	.	.	.	.	.	.	.	.	.	.	.	.	.	.	.	.
.	.	.	.	8e/	.	4g#X/	.	.	.	.	.	.	.	.	.	.	.	.	.	.	.	.	.
.	.	.	.	8d/J	.	.	.	.	.	.	.	.	.	.	.	.	.	.	.	.	.	.	.
!	!	!	!	!	!	!	!	!	!	!	!	!	!	!	!	!	!	!	!	!LO:LB:g=original	!	!	!
=39	=39	=39	=39	=39	=39	=39	=39	=39	=39	=39	=39	=39	=39	=39	=39	=39	=39	=39	=39	=39	=39	=39	=39
!	!	!	!	!	!	!LO:MO:mod=!LO&colon;TX&colon;a&colon;i&colon;t=Solo	!	!	!	!	!	!	!	!	!	!	!	!	!	!	!	!	!
!	!	!	!	!	!	!LO:TX:a:i:t=Solo&colon;	!	!	!	!	!	!	!	!	!	!LO:TX:a:t=5.:mod=	!	!	!	!	!	!	!
00r	.	00r	.	8c#/L	.	4.a/	.	00r	.	00r	.	00r	.	00r	.	00r	.	00r	00r	00r	00r	00r	00r
.	.	.	.	8B/	.	.	.	.	.	.	.	.	.	.	.	.	.	.	.	.	.	.	.
.	.	.	.	8A/	.	.	.	.	.	.	.	.	.	.	.	.	.	.	.	.	.	.	.
.	.	.	.	8G#X/J	.	8b\	.	.	.	.	.	.	.	.	.	.	.	.	.	.	.	.	.
!	!	!	!	!LO:LB:g=original	!	!	!	!	!	!	!	!	!	!	!	!	!	!	!	!	!	!	!
.	.	.	.	4.A/	.	8cc#\L	.	.	.	.	.	.	.	.	.	.	.	.	.	.	.	.	.
.	.	.	.	.	.	8b\J	.	.	.	.	.	.	.	.	.	.	.	.	.	.	.	.	.
.	.	.	.	.	.	4a/	.	.	.	.	.	.	.	.	.	.	.	.	.	.	.	.	.
.	.	.	.	8c#/	.	.	.	.	.	.	.	.	.	.	.	.	.	.	.	.	.	.	.
=40	=40	=40	=40	=40	=40	=40	=40	=40	=40	=40	=40	=40	=40	=40	=40	=40	=40	=40	=40	=40	=40	=40	=40
.	.	.	.	4d/	.	4.b\	.	.	.	.	.	.	.	.	.	.	.	.	.	.	.	.	.
.	.	.	.	4e/	.	.	.	.	.	.	.	.	.	.	.	.	.	.	.	.	.	.	.
.	.	.	.	.	.	16a\LL	.	.	.	.	.	.	.	.	.	.	.	.	.	.	.	.	.
.	.	.	.	.	.	16b\JJ	.	.	.	.	.	.	.	.	.	.	.	.	.	.	.	.	.
.	.	.	.	4a/	.	8cc#\L	.	.	.	.	.	.	.	.	.	.	.	.	.	.	.	.	.
.	.	.	.	.	.	16dd\L	.	.	.	.	.	.	.	.	.	.	.	.	.	.	.	.	.
.	.	.	.	.	.	16cc#\JJ	.	.	.	.	.	.	.	.	.	.	.	.	.	.	.	.	.
.	.	.	.	4gn/	.	8b\L	.	.	.	.	.	.	.	.	.	.	.	.	.	.	.	.	.
.	.	.	.	.	.	8cc#\J	.	.	.	.	.	.	.	.	.	.	.	.	.	.	.	.	.
=41	=41	=41	=41	=41	=41	=41	=41	=41	=41	=41	=41	=41	=41	=41	=41	=41	=41	=41	=41	=41	=41	=41	=41
.	.	.	.	4f#/	.	8dd\L	.	.	.	.	.	.	.	.	.	.	.	.	.	.	.	.	.
.	.	.	.	.	.	8a\J	.	.	.	.	.	.	.	.	.	.	.	.	.	.	.	.	.
.	.	.	.	8r	.	4.aa\	.	.	.	.	.	.	.	.	.	.	.	.	.	.	.	.	.
.	.	.	.	8f#/	.	.	.	.	.	.	.	.	.	.	.	.	.	.	.	.	.	.	.
.	.	.	.	4.d/	.	.	.	.	.	.	.	.	.	.	.	.	.	.	.	.	.	.	.
.	.	.	.	.	.	8b\	.	.	.	.	.	.	.	.	.	.	.	.	.	.	.	.	.
.	.	.	.	.	.	[4gg\	.	.	.	.	.	.	.	.	.	.	.	.	.	.	.	.	.
.	.	.	.	8e/	.	.	.	.	.	.	.	.	.	.	.	.	.	.	.	.	.	.	.
!	!	!	!	!	!	!LO:LB:g=original	!	!	!	!	!	!	!	!	!	!	!	!	!	!	!	!	!
=42	=42	=42	=42	=42	=42	=42	=42	=42	=42	=42	=42	=42	=42	=42	=42	=42	=42	=42	=42	=42	=42	=42	=42
!	!	!	!	!	!	!LO:TX:a:t=P:problem=brak zakończenia ligatury	!	!	!	!	!	!	!	!	!	!	!	!	!	!	!	!	!
.	.	.	.	4.c#/	.	8gg\L]	.	.	.	.	.	.	.	.	.	.	.	.	.	.	.	.	.
.	.	.	.	.	.	8a\J	.	.	.	.	.	.	.	.	.	.	.	.	.	.	.	.	.
.	.	.	.	.	.	4.ff#\	.	.	.	.	.	.	.	.	.	.	.	.	.	.	.	.	.
.	.	.	.	8d/	.	.	.	.	.	.	.	.	.	.	.	.	.	.	.	.	.	.	.
.	.	.	.	4.B/	.	.	.	.	.	.	.	.	.	.	.	.	.	.	.	.	.	.	.
.	.	.	.	.	.	8g/	.	.	.	.	.	.	.	.	.	.	.	.	.	.	.	.	.
.	.	.	.	.	.	[4ee\	.	.	.	.	.	.	.	.	.	.	.	.	.	.	.	.	.
.	.	.	.	8c#/	.	.	.	.	.	.	.	.	.	.	.	.	.	.	.	.	.	.	.
=43	=43	=43	=43	=43	=43	=43	=43	=43	=43	=43	=43	=43	=43	=43	=43	=43	=43	=43	=43	=43	=43	=43	=43
!	!	!	!	!	!	!LO:MO:mod=!null:null	!	!	!	!	!	!	!	!	!	!	!	!	!	!	!	!	!
!	!	!	!	!	!	!LO:N:xstem:cue	!	!	!	!	!	!	!	!	!	!	!	!	!	!	!	!	!
!	!	!	!	!	!	!LO:SIC:o=8ee\]	!	!	!	!	!	!	!	!	!	!	!	!	!	!	!	!	!
1r	.	1r	.	4.A/	.	8eeL]	.	1r	.	1r	.	1r	.	1r	.	1r	.	1r	1r	1r	1r	1r	1r
!	!	!	!	!	!	!LO:SIC:o=8f#/	!	!	!	!	!	!	!	!	!	!	!	!	!	!	!	!	!
.	.	.	.	.	.	8f#J	.	.	.	.	.	.	.	.	.	.	.	.	.	.	.	.	.
.	.	.	.	.	.	4.dd\	.	.	.	.	.	.	.	.	.	.	.	.	.	.	.	.	.
.	.	.	.	8B/	.	.	.	.	.	.	.	.	.	.	.	.	.	.	.	.	.	.	.
.	.	.	.	4G/	.	.	.	.	.	.	.	.	.	.	.	.	.	.	.	.	.	.	.
.	.	.	.	.	.	8ee\	.	.	.	.	.	.	.	.	.	.	.	.	.	.	.	.	.
.	.	.	.	.	.	16qqdd/	.	.	.	.	.	.	.	.	.	.	.	.	.	.	.	.	.
.	.	.	.	4A/	.	8cc#\L	.	.	.	.	.	.	.	.	.	.	.	.	.	.	.	.	.
.	.	.	.	.	.	16b\L	.	.	.	.	.	.	.	.	.	.	.	.	.	.	.	.	.
.	.	.	.	.	.	16cc#\JJ	.	.	.	.	.	.	.	.	.	.	.	.	.	.	.	.	.
!LO:PB:g=original	!	!	!	!	!	!	!	!	!	!	!	!	!	!LO:LB:g=original	!	!	!	!	!	!	!	!	!
=44	=44	=44	=44	=44	=44	=44	=44	=44	=44	=44	=44	=44	=44	=44	=44	=44	=44	=44	=44	=44	=44	=44	=44
*	*	*	*	*	*	*	*	*	*	*	*	*	*	*	*	*tremolo	*	*	*	*	*	*	*
!	!	!	!	!	!LO:DY:a	!	!LO:DY:a	!	!	!	!	!	!	!	!	!	!	!	!	!	!	!	!
8r	.	8r	.	4d/	f	4dd\	f	8r	.	8r	.	2f#\	a-	2.dd\	a-	16D\LL	.	2.d\	2f#\	2.dd\	2ff#\	2.dd\	2ff#\
.	.	.	.	.	.	.	.	.	.	.	.	.	.	.	.	16D\	.	.	.	.	.	.	.
!	!	!	!LO:DY:t= :mod=%s	!	!	!	!	!	!	!	!	!	!	!	!	!	!	!	!	!	!	!	!
!	!	!	!LO:MO:mod=!LO&colon;DY&colon;ed=brack	!	!	!	!	!	!	!	!	!	!	!	!	!	!	!	!	!	!	!	!
!	!	!	!null	!	!	!	!	!	!	!	!	!	!	!	!	!	!	!	!	!	!	!	!
8D\L	.	8F#/L	f	.	.	.	.	8D\L	a-	8F#/L	a-	.	.	.	.	16D\	.	.	.	.	.	.	.
.	.	.	.	.	.	.	.	.	.	.	.	.	.	.	.	16D\	.	.	.	.	.	.	.
8E\	.	8G/	.	4f#/	.	2dd\	.	8E\	.	8G/	.	.	.	.	.	16D\	.	.	.	.	.	.	.
.	.	.	.	.	.	.	.	.	.	.	.	.	.	.	.	16D\	.	.	.	.	.	.	.
8F#\J	.	8A/J	.	.	.	.	.	8F#\J	.	8A/J	.	.	.	.	.	16D\	.	.	.	.	.	.	.
.	.	.	.	.	.	.	.	.	.	.	.	.	.	.	.	16D\	.	.	.	.	.	.	.
8G\L	6 5	4B/	.	2e/	.	.	.	8G\L	.	4B\	.	2e\	.	.	.	16D\	.	.	2e\	.	2ee\	.	2ee\
.	.	.	.	.	.	.	.	.	.	.	.	.	.	.	.	16D\	.	.	.	.	.	.	.
8E\	.	.	.	.	.	.	.	8E\	.	.	.	.	.	.	.	16D\	.	.	.	.	.	.	.
.	.	.	.	.	.	.	.	.	.	.	.	.	.	.	.	16D\JJ	.	.	.	.	.	.	.
*	*	*	*	*	*	*	*	*	*	*	*	*	*	*	*	*Xtremolo	*	*	*	*	*	*	*
8A\	3_	4A/	.	.	.	4cc#\	.	8A\	.	4A\	.	.	.	4cc#\	.	4AA/	.	4A/	.	4cc#\	.	4cc#\	.
8G\J	.	.	.	.	.	.	.	8G\J	.	.	.	.	.	.	.	.	.	.	.	.	.	.	.
!	!	!	!	!	!	!	!	!	!	!LO:LB:g=original	!	!	!	!	!	!	!	!	!	!	!	!	!
=45	=45	=45	=45	=45	=45	=45	=45	=45	=45	=45	=45	=45	=45	=45	=45	=45	=45	=45	=45	=45	=45	=45	=45
8F#\L	6_	2A/	.	4.f#/	.	4.dd\	.	8F#\L	.	2A\	-men	4.f#\	.	4.dd\	.	4.D\	.	4.F#/	4.d\	4.dd\	4.ff#\	4.dd\	4.ff#\
8E\	.	.	.	.	.	.	.	8E\	.	.	.	.	.	.	.	.	.	.	.	.	.	.	.
8D\	6 5	.	.	.	.	.	.	8D\	.	.	.	.	.	.	.	.	.	.	.	.	.	.	.
8C#\J	.	.	.	8g/	.	8ee\	.	8C#\J	.	.	.	8g\	.	8ee\	.	8AA/	.	8A/	8e\	8ee\	8gg\	8ee\	8gg\
!	!	!	!	!	!	!	!	!	!	!	!	!	!	!	!	!	!	!	!	!	!LO:LB:g=original	!	!
4.D\	.	2A/	.	8a/L	.	8ff#\L	.	4.D\	.	2A\	a-	8a\L	.	8ff#\L	.	4D\	.	4d\	4f#\	8ff#\L	8aa\L	8ff#\L	8aa\L
.	.	.	.	8g/J	.	8ee\J	.	.	.	.	.	8g\	.	8ee\J	.	.	.	.	.	8ee\J	8gg\J	8ee\J	8gg\J
.	.	.	.	4f#/	.	4dd\	.	.	.	.	.	8f#\	.	4dd\	.	4D\	.	4d\	4f#\	4dd\	4ff#\	4dd\	4ff#\
8F#\	6	.	.	.	.	.	.	8F#\	.	.	.	8a\J	.	.	.	.	.	.	.	.	.	.	.
=46	=46	=46	=46	=46	=46	=46	=46	=46	=46	=46	=46	=46	=46	=46	=46	=46	=46	=46	=46	=46	=46	=46	=46
4G\	.6	4B/	.	4b\	.	4.ee\	.	4G\	.	4B\	.	4b\	.	2ee\	.	4AA/	.	4e\	4g\	4b\	2ee\	4b\	2ee\
4A\	.	4A/	.	4cc#\	.	.	.	4A\	.	4A\	.	4cc#\	.	.	.	4AA/	.	4A/	4e\	4cc#\	.	4cc#\	.
.	.	.	.	.	.	16dd\LL	.	.	.	.	.	.	.	.	.	.	.	.	.	.	.	.	.
.	.	.	.	.	.	16ee\JJ	.	.	.	.	.	.	.	.	.	.	.	.	.	.	.	.	.
4D\	.	4A/	.	4dd\	.	8ff#\L	.	4D\	.	4A\	-men	4dd\	.	4ff#\	.	4D\	.	4F#/	4d\	4dd\	2ff#\	4dd\	2ff#\
.	.	.	.	.	.	16gg\L	.	.	.	.	.	.	.	.	.	.	.	.	.	.	.	.	.
.	.	.	.	.	.	16ff#\JJ	.	.	.	.	.	.	.	.	.	.	.	.	.	.	.	.	.
4d\	.	4d\	.	4a/	.	8ee\L	.	4d\	.	4d\	a-	4a\	.	8ee\L	.	4D\	.	4d\	4f#\	4a\	.	4a\	.
.	.	.	.	.	.	8ff#\J	.	.	.	.	.	.	.	8ff#\J	.	.	.	.	.	.	.	.	.
!	!	!	!	!LO:LB:g=original	!	!	!	!	!	!	!	!	!	!	!	!	!	!	!	!	!	!	!
=47	=47	=47	=47	=47	=47	=47	=47	=47	=47	=47	=47	=47	=47	=47	=47	=47	=47	=47	=47	=47	=47	=47	=47
4d\	r#4 2	2e\	.	4b\	.	8gg#X\L	.	4d\	.	2e\	.	4b\	.	8gg#X\L	.	4AA/	.	4e\	4g#X\	4b\	4gg#\	4b\	4gg#X\
.	.	.	.	.	.	8ee\J	.	.	.	.	.	.	.	8ee\J	.	.	.	.	.	.	.	.	.
4c#\	6	.	.	4cc#\	.	2aa\	.	4c#\	.	.	.	4cc#\	.	2aa\	.	4AA/	.	4A/	2a\	4cc#\	2aa\	4cc#\	2aa\
!	!	!	!	!	!	!	!	!LO:LB:g=original	!	!	!	!	!	!	!	!	!	!	!	!	!	!LO:LB:g=original	!
2B\	7	4f#\	.	2dd\	.	.	.	2B\	.	4f#\	.	2dd\	.	.	.	4D\	.	4f#\	.	2dd\	.	2dd\	.
.	6\	4e\	.	.	.	4gg#\	.	.	.	4e\	.	.	.	4gg#\	.	4AA/	.	4e\	4g#\	.	4gg#\	.	4gg#\
=48	=48	=48	=48	=48	=48	=48	=48	=48	=48	=48	=48	=48	=48	=48	=48	=48	=48	=48	=48	=48	=48	=48	=48
!	!	!	!	!	!	!	!	!	!	!	!	!	!	!	!	!	!	!	!LO:SIC:o=4g\	!	!	!	!
2.A\	4 2	8e\L	.	4cc#\	.	4aa\	.	2.A\	.	8e\	-men	4cc#\	-men	4aa\	-men	4AA/	.	4A/	4a	4cc#\	4aa\	4cc#\	4aa\
.	.	8A\	.	.	.	.	.	.	.	8A\L	a-	.	.	.	.	.	.	.	.	.	.	.	.
.	.	8B\	.	4r	.	4cc#\	.	.	.	8B\	.	4r	.	4cc#\	a-	4r	.	4r	4r	4r	4r	4r	4r
.	.	8c#\J	.	.	.	.	.	.	.	8c#\J	.	.	.	.	.	.	.	.	.	.	.	.	.
!	!	!LO:LB:g=original	!	!	!	!LO:LB:g=original	!	!	!	!	!	!	!	!	!	!	!	!	!	!	!	!	!
.	.	8d\L	.	2r	.	2b\	.	.	.	8d\L	.	2r	.	2b\	.	2r	.	2r	2r	2r	2r	2r	2r
.	.	8B\	.	.	.	.	.	.	.	8B\	.	.	.	.	.	.	.	.	.	.	.	.	.
4G#X\	6 5	8e\	.	.	.	.	.	4G#X\	.	8e\	.	.	.	.	.	.	.	.	.	.	.	.	.
.	.	8d\J	.	.	.	.	.	.	.	8d\J	.	.	.	.	.	.	.	.	.	.	.	.	.
!	!	!	!	!	!	!	!	!	!	!	!	!	!	!	!	!	!	!	!	!	!	!	!LO:LB:g=original
=49	=49	=49	=49	=49	=49	=49	=49	=49	=49	=49	=49	=49	=49	=49	=49	=49	=49	=49	=49	=49	=49	=49	=49
!	!	!	!	!	!	!	!	!	!	!	!	!	!	!	!	!LO:TX:a:t=2.:mod=	!	!	!	!	!	!	!
4.A\	.	8c#/L	.	1r	.	4.cc#\	.	4.A\	.	8c#\L	.	1r	.	4.cc#\	.	0r	.	0r	0r	0r	0r	0r	0r
.	.	8B/	.	.	.	.	.	.	.	8B\	.	.	.	.	.	.	.	.	.	.	.	.	.
.	.	8A/	.	.	.	.	.	.	.	8A\	.	.	.	.	.	.	.	.	.	.	.	.	.
8B\	6\	8G#X/J	.	.	.	8dd\	.	8B\	.	8G#X\J	.	.	.	8dd\	.	.	.	.	.	.	.	.	.
8c#\L	6	4.A/	.	.	.	8ee\L	.	8c#\L	.	4.A\	.	.	.	8ee\L	.	.	.	.	.	.	.	.	.
8B\J	.	.	.	.	.	8dd\	.	8B\J	.	.	.	.	.	8dd\	.	.	.	.	.	.	.	.	.
4A\	.	.	.	.	.	8cc#\	.	4A\	-men	.	.	.	.	8cc#\	.	.	.	.	.	.	.	.	.
.	.	8c#/	.	.	.	8ee\J	.	.	.	8c#\	.	.	.	8ee\J	.	.	.	.	.	.	.	.	.
!	!	!	!	!	!	!	!	!	!	!	!	!	!	!LO:LB:g=original	!	!	!	!	!	!	!	!	!
=50	=50	=50	=50	=50	=50	=50	=50	=50	=50	=50	=50	=50	=50	=50	=50	=50	=50	=50	=50	=50	=50	=50	=50
2B\	5	4d\	.	2r	.	4ff#\	.	2B\	a-	4d\	.	2r	.	4ff#\	.	.	.	.	.	.	.	.	.
.	6\	4e\	.	.	.	4gg#X\	.	.	.	4e\	.	.	.	4gg#X\	.	.	.	.	.	.	.	.	.
4c#\	6	4a\	.	4r	.	4aa\	.	2c#\	.	4e\	-men	4r	.	4aa\	.	.	.	.	.	.	.	.	.
8B\L	.	4gn\	.	[4a/	.	4ggn\	.	.	.	4e\	a-	4a\	a-	4ggn\	.	.	.	.	.	.	.	.	.
8c#\J	6 n5r	.	.	.	.	.	.	.	.	.	.	.	.	.	.	.	.	.	.	.	.	.	.
!LO:LB:g=original	!	!	!	!	!	!	!	!	!	!	!	!LO:LB:g=original	!	!	!	!	!	!	!	!	!	!	!
=51	=51	=51	=51	=51	=51	=51	=51	=51	=51	=51	=51	=51	=51	=51	=51	=51	=51	=51	=51	=51	=51	=51	=51
8d'\L	.	4f#\	.	8a/L]	.	4ff#\	.	8d\L	.	2d\	.	4a\	.	4ff#\	.	4r	.	4r	4r	4r	4r	4r	4r
8A\J	.	.	.	8d/	.	.	.	8A\J	.	.	.	.	.	.	.	.	.	.	.	.	.	.	.
2d\	3	4d\	.	8e/	.	8gg\L	.	2d\	.	.	.	8b\L	.	8gg\L	.	4D\	.	4d\	4f#\	4dd\	4ff#\	4dd\	4ff#\
.	.	.	.	8f#/J	.	8ff#\J	.	.	.	.	.	8a\J	.	8ff#\J	.	.	.	.	.	.	.	.	.
.	4 2	4B/	.	8g/L	.	2ee\	.	.	.	4B\	.	8g\L	.	2ee\	.	4D\	.	4d\	2e\	2ee\	2gg\	2ee\	2gg\
.	.	.	.	8e/	.	.	.	.	.	.	.	8e\	.	.	.	.	.	.	.	.	.	.	.
4c#\	6 5	4A/	.	8a/	.	.	.	4c#\	.	4A\	.	8a\	.	.	.	4AA/	.	4A/	.	.	.	.	.
.	.	.	.	8g/J	.	.	.	.	.	.	.	8g\J	.	.	.	.	.	.	.	.	.	.	.
!	!	!	!	!	!	!	!	!	!	!	!	!	!	!	!	!	!	!LO:LB:g=original	!LO:LB:g=original	!LO:LB:g=original	!	!	!
=52	=52	=52	=52	=52	=52	=52	=52	=52	=52	=52	=52	=52	=52	=52	=52	=52	=52	=52	=52	=52	=52	=52	=52
4d\	.	4A/	.	4f#/	.	8ff#\L	.	4d\	.	4A\	-men	4f#\	-men	4ff#\	.	4D\	.	4F#/	4d\	4ff#\	2aa\	4ff#\	2aa\
.	.	.	.	.	.	16gg\L	.	.	.	.	.	.	.	.	.	.	.	.	.	.	.	.	.
.	.	.	.	.	.	16ff#\JJ	.	.	.	.	.	.	.	.	.	.	.	.	.	.	.	.	.
!	!	!	!	!	!	!	!	!	!	!LO:LB:g=original	!	!	!	!	!	!	!	!	!	!	!	!	!
4c#\	6	4a\	.	4cc#\	.	8ee\L	.	4c#\	.	4c#\	a-	4a\	a-	4ee\	.	4r	.	4r	4r	4ee\	.	4ee\	.
.	.	.	.	.	.	8aa\J	.	.	.	.	.	.	.	.	.	.	.	.	.	.	.	.	.
4.B\	6_ 5_	2g\	.	2dd\	.	8dd\L	.	2B\	.	2d\	.	2g\	.	2dd\	.	2r	.	2r	2r	2dd\	2gg\	2dd\	2gg\
.	.	.	.	.	.	16ee\L	.	.	.	.	.	.	.	.	.	.	.	.	.	.	.	.	.
.	.	.	.	.	.	16ff#\JJ	.	.	.	.	.	.	.	.	.	.	.	.	.	.	.	.	.
.	.	.	.	.	.	[<4gg\	.	.	.	.	.	.	.	.	.	.	.	.	.	.	.	.	.
16A\LL	.	.	.	.	.	.	.	.	.	.	.	.	.	.	.	.	.	.	.	.	.	.	.
16B\JJ	.	.	.	.	.	.	.	.	.	.	.	.	.	.	.	.	.	.	.	.	.	.	.
=53	=53	=53	=53	=53	=53	=53	=53	=53	=53	=53	=53	=53	=53	=53	=53	=53	=53	=53	=53	=53	=53	=53	=53
!	!	!	!	!	!	!LO:MO:mod=!null:null	!	!	!	!	!	!	!	!	!	!	!	!	!	!	!	!	!
!	!	!	!	!	!	!LO:N:xstem:cue	!	!	!	!	!	!	!	!	!	!LO:TX:a:t=11.:mod=	!	!	!	!	!	!	!
!	!	!	!	!	!	!LO:SIC:o=8gg\]	!	!	!	!	!	!	!	!	!	!	!	!	!	!	!	!	!
4c#\	3	2g\	.	4g/	.	8ggL]	.	4c#\	.	4G/	.	2g\	.	4ee\	.	1r	.	00r	00r	4ee\	2gg\	4ee\	2gg\
!	!	!	!	!	!	!LO:SIC:o=8ee\L	!	!	!	!	!	!	!	!	!	!	!	!	!	!	!	!	!
.	.	.	.	.	.	8ee	.	.	.	.	.	.	.	.	.	.	.	.	.	.	.	.	.
4B\	6	.	.	4b\	.	8dd\	.	4B\	.	4B\	.	.	.	4dd\	.	.	.	.	.	4dd\	.	4dd\	.
.	.	.	.	.	.	8gg\J	.	.	.	.	.	.	.	.	.	.	.	.	.	.	.	.	.
4.A\	6_ 5_	2f#\	.	2cc#\	.	8cc#\L	.	2A\	.	2c#\	.	2f#\	.	2cc#\	.	.	.	.	.	2cc#\	2ff#\	2cc#\	2ff#\
.	.	.	.	.	.	16dd\L	.	.	.	.	.	.	.	.	.	.	.	.	.	.	.	.	.
.	.	.	.	.	.	16ee\JJ	.	.	.	.	.	.	.	.	.	.	.	.	.	.	.	.	.
.	.	.	.	.	.	[<4ff#\	.	.	.	.	.	.	.	.	.	.	.	.	.	.	.	.	.
16G\LL	.	.	.	.	.	.	.	.	.	.	.	.	.	.	.	.	.	.	.	.	.	.	.
16A\JJ	x	.	.	.	.	.	.	.	.	.	.	.	.	.	.	.	.	.	.	.	.	.	.
=54	=54	=54	=54	=54	=54	=54	=54	=54	=54	=54	=54	=54	=54	=54	=54	=54	=54	=54	=54	=54	=54	=54	=54
!	!	!	!	!	!	!LO:MO:mod=!null:null	!	!	!	!	!	!	!	!	!	!	!	!	!	!	!	!	!
!	!	!	!	!	!	!LO:N:xstem:cue	!	!	!	!	!	!	!	!	!	!	!	!	!	!	!	!	!
!	!	!	!	!	!	!LO:SIC:o=8ff#\]	!	!	!	!	!	!	!	!	!	!	!	!	!	!	!	!	!
4B\	.	2f#\	.	4f#/	.	8ff#L]	.	4B\	.	4F#/	.	2f#\	.	4dd\	.	1r	.	.	.	4dd\	2ff#\	4dd\	2ff#\
!	!	!	!	!	!	!LO:SIC:o=8dd\L	!	!	!	!	!	!	!	!	!	!	!	!	!	!	!	!	!
.	.	.	.	.	.	8dd	.	.	.	.	.	.	.	.	.	.	.	.	.	.	.	.	.
4A\	6	.	.	4a/	.	8cc#\	.	4A\	.	4A\	.	.	.	4cc#\	.	.	.	.	.	4cc#\	.	4cc#\	.
.	.	.	.	.	.	8ff#\J	.	.	.	.	.	.	.	.	.	.	.	.	.	.	.	.	.
4.G\	6_ 5_	2e\	.	2b\	.	8b\L	.	2G\	.	2B\	.	2e\	.	2b\	.	.	.	.	.	2b\	2ee\	2b\	2ee\
.	.	.	.	.	.	16cc#\L	.	.	.	.	.	.	.	.	.	.	.	.	.	.	.	.	.
.	.	.	.	.	.	16dd\JJ	.	.	.	.	.	.	.	.	.	.	.	.	.	.	.	.	.
!	!	!	!	!	!	!LO:LB:g=original	!	!	!	!	!	!	!	!	!	!	!	!	!	!	!	!	!
.	.	.	.	.	.	[<4ee\	.	.	.	.	.	.	.	.	.	.	.	.	.	.	.	.	.
16F#\LL	.	.	.	.	.	.	.	.	.	.	.	.	.	.	.	.	.	.	.	.	.	.	.
16G\JJ	x	.	.	.	.	.	.	.	.	.	.	.	.	.	.	.	.	.	.	.	.	.	.
!	!	!	!	!	!	!	!	!LO:LB:g=original	!	!	!	!	!	!	!	!	!	!	!	!	!LO:LB:g=original	!	!
=55	=55	=55	=55	=55	=55	=55	=55	=55	=55	=55	=55	=55	=55	=55	=55	=55	=55	=55	=55	=55	=55	=55	=55
!	!	!	!	!	!	!LO:MO:mod=!null:null	!	!	!	!	!	!	!	!	!	!	!	!	!	!	!	!	!
!	!	!	!	!	!	!LO:N:xstem:cue	!	!	!	!	!	!	!	!	!	!	!	!	!	!	!	!	!
!	!	!	!	!	!	!LO:SIC:o=8ee\]	!	!	!	!	!	!	!	!	!	!	!	!	!	!	!	!	!
4A\	.	2e\	.	4e/	.	8eeL]	.	4A\	.	4E/	.	2e\	.	4cc#\	.	1r	.	.	.	4cc#\	2ee\	4cc#\	2ee\
!	!	!	!	!	!	!LO:SIC:o=8cc#\L	!	!	!	!	!	!	!	!	!	!	!	!	!	!	!	!	!
.	.	.	.	.	.	8cc#	.	.	.	.	.	.	.	.	.	.	.	.	.	.	.	.	.
4G\	6	.	.	4g/	.	8b\	.	4G\	.	4G/	.	.	.	4b\	.	.	.	.	.	4b\	.	4b\	.
.	.	.	.	.	.	8ee\J	.	.	.	.	.	.	.	.	.	.	.	.	.	.	.	.	.
4.F#\	6_ 5_	2d\	.	2a/	.	8a\L	.	2F#\	.	2A\	.	4d\	-men	4a\	-men	.	.	.	.	2a\	2dd\	2a/	2dd\
.	.	.	.	.	.	16b\L	.	.	.	.	.	.	.	.	.	.	.	.	.	.	.	.	.
.	.	.	.	.	.	16cc#\JJ	.	.	.	.	.	.	.	.	.	.	.	.	.	.	.	.	.
.	.	.	.	.	.	4dd\	.	.	.	.	.	4a\	a-	4cc#\	a-	.	.	.	.	.	.	.	.
16G\LL	.	.	.	.	.	.	.	.	.	.	.	.	.	.	.	.	.	.	.	.	.	.	.
16F#\JJ	x	.	.	.	.	.	.	.	.	.	.	.	.	.	.	.	.	.	.	.	.	.	.
!	!	!LO:LB:g=original	!	!LO:LB:g=original	!	!	!	!	!	!	!	!	!	!	!	!	!	!	!	!	!	!	!
=56	=56	=56	=56	=56	=56	=56	=56	=56	=56	=56	=56	=56	=56	=56	=56	=56	=56	=56	=56	=56	=56	=56	=56
2E\	7	4B/	.	2g/	.	4dd\	.	2E\	.	4B\	.	2g\	.	4dd\	.	1r	.	.	.	2g\	4dd\	2g/	4dd\
.	6	4A/	.	.	.	4cc#\	.	.	.	4A\	.	.	.	4cc#\	.	.	.	.	.	.	4cc#\	.	4cc#\
4D\	.	4A/	.	8f#/L	.	8dd\L	.	4D\	-men	4A\	-men	4f#\	.	4dd\	.	.	.	.	.	4f#\	4dd\	4f#/	4dd\
.	.	.	.	16e/L	.	16cc#\L	.	.	.	.	.	.	.	.	.	.	.	.	.	.	.	.	.
.	.	.	.	16f#/JJ	.	16dd\JJ	.	.	.	.	.	.	.	.	.	.	.	.	.	.	.	.	.
4G\	6	4B/	.	8g/L	.	8ee\L	.	4G\	a-	4B\	a-	8g\L	.	4ee\	.	.	.	.	.	4dd\	4ff#\	4dd\	4ff#\
.	5	.	.	8f#/J	.	8dd\J	.	.	.	.	.	8f#\J	.	.	.	.	.	.	.	.	.	.	.
!	!	!	!	!	!	!	!	!	!	!	!	!	!	!LO:LB:g=original	!	!	!	!	!	!	!	!	!
=57	=57	=57	=57	=57	=57	=57	=57	=57	=57	=57	=57	=57	=57	=57	=57	=57	=57	=57	=57	=57	=57	=57	=57
4.A\	3_	2A/	.	8e/L	.	8cc#\L	.	4.A\	.	1A	.	2e\	.	2cc#\	.	1r	.	00r	00r	2cc#\	2ee\	2cc#\	2ee\
.	.	.	.	8c#/	.	8a\	.	.	.	.	.	.	.	.	.	.	.	.	.	.	.	.	.
.	.	.	.	8d/	.	8b\	.	.	.	.	.	.	.	.	.	.	.	.	.	.	.	.	.
8G\	.	.	.	8e/J	.	8cc#\J	.	8G\	.	.	.	.	.	.	.	.	.	.	.	.	.	.	.
8F#\L	6_	2A/	.	8f#/L	.	4.dd\	.	8F#\L	.	.	.	4f#\	.	4.dd\	.	.	.	.	.	4dd\	4ff#\	4dd\	4ff#\
8D\	.	.	.	8f#/	.	.	.	8D\	.	.	.	.	.	.	.	.	.	.	.	.	.	.	.
8E\	.	.	.	8g/	.	.	.	8E\	.	.	.	8g\L	.	.	.	.	.	.	.	4ccX\	4aa\	4ccn\	4aa\
!	!	!	!	!	!	!	!	!	!	!	!	!LO:TX:b:i:t=Verte:mod=	!	!	!	!	!	!	!	!	!	!	!
8F#\J	6 n5r	.	.	8a/J	.	8ccn\	.	8F#\J	.	.	.	8a\J	.	8ccn\	.	.	.	.	.	.	.	.	.
!	!	!	!	!	!	!	!	!	!	!	!	!LO:PB:g=original	!	!	!	!	!	!	!	!	!	!	!
=58	=58	=58	=58	=58	=58	=58	=58	=58	=58	=58	=58	=58	=58	=58	=58	=58	=58	=58	=58	=58	=58	=58	=58
8G\L	3_	4G/	.	4g/	.	8b\L	.	8G\L	.	4G/	-men	4g\	.	4b\	.	1r	.	.	.	4b\	2bb\	4b\	2bb\
8D\J	.	.	.	.	.	16a\L	.	8D\J	.	.	.	.	.	.	.	.	.	.	.	.	.	.	.
.	.	.	.	.	.	16b\JJ	.	.	.	.	.	.	.	.	.	.	.	.	.	.	.	.	.
!	!	!	!	!	!	!LO:SIC:v:o=8cc#\L	!	!	!	!	!	!	!	!LO:SIC:v:o=8cc#\L	!	!	!	!	!	!	!	!	!
2G\	4 2	8A/L	.	2e/	.	8ccn\L	.	2G\	.	8A\L	a-	2e\	.	8ccn\L	.	.	.	.	.	4dd\	.	4dd\	.
.	.	8B/J	.	.	.	8b\J	.	.	.	8B\J	.	.	.	8b\J	.	.	.	.	.	.	.	.	.
!	!	!	!	!	!	!	!	!	!	!	!	!	!	!	!	!	!	!	!	!	!	!LO:SIC:v:o=2cc#\	!
.	.	8cn/L	.	.	.	2a/	.	.	.	8cn\L	.	.	.	2a\	.	.	.	.	.	2ccX\	2aa\	2ccn\	2aa\
.	.	8A/	.	.	.	.	.	.	.	8A\	.	.	.	.	.	.	.	.	.	.	.	.	.
4F#\	6 n5r	8d/	.	4d/	.	.	.	4F#\	.	8d\	.	4d\	.	.	.	.	.	.	.	.	.	.	.
.	.	8c/J	.	.	.	.	.	.	.	8c\J	.	.	.	.	.	.	.	.	.	.	.	.	.
!LO:LB:g=original	!	!	!	!	!	!	!	!	!	!	!	!	!	!	!	!	!	!	!	!	!	!LO:LB:g=original	!
=59	=59	=59	=59	=59	=59	=59	=59	=59	=59	=59	=59	=59	=59	=59	=59	=59	=59	=59	=59	=59	=59	=59	=59
!	!	!	!	!	!	!	!	!	!	!	!	!	!	!	!	!	!	!	!	!LO:SIC:o=4a\	!	!	!
8G\L	3_	2B/	.	4d/	.	4b\	.	8G\	-men	2B\	-men	4d\	-men	4b\	-men	1r	.	.	.	4b	2gg\	4b\	2gg\
8G\	.	.	.	.	.	.	.	8G\L	a-	.	.	.	.	.	.	.	.	.	.	.	.	.	.
8A\	X	.	.	4b\	.	4gg\	.	8A\	.	.	.	4b\	a-	4gg\	a-	.	.	.	.	4dd\	.	4dd\	.
8B\J	.	.	.	.	.	.	.	8B\J	.	.	.	.	.	.	.	.	.	.	.	.	.	.	.
[<2cn\	6	2e\	.	8ccn\L	.	8aa\L	.	2cn\	.	2e\	a-	8ccn\L	.	8aa\L	.	.	.	.	.	2ee\	4aa\	2ee\	4aa\
.	.	.	.	8dd\	.	8bb\	.	.	.	.	.	8dd\	.	8bb\	.	.	.	.	.	.	.	.	.
.	.	.	.	8cc\	.	8aa\	.	.	.	.	.	8cc\	.	8aa\	.	.	.	.	.	.	4gg\	.	4gg\
.	5	.	.	8b\J	.	8gg\J	.	.	.	.	.	8b\J	.	8gg\J	.	.	.	.	.	.	.	.	.
!	!	!	!	!	!	!	!	!	!	!	!	!	!	!	!	!	!	!	!	!LO:LB:g=original	!	!	!LO:LB:g=original
=60	=60	=60	=60	=60	=60	=60	=60	=60	=60	=60	=60	=60	=60	=60	=60	=60	=60	=60	=60	=60	=60	=60	=60
!	!	!	!	!	!	!	!	!LO:SIC:v:o=8c#\L	!	!	!	!	!	!	!	!	!	!	!	!	!	!	!
8c\L]	4_ 2_	1d	.	2a/	.	2ff#\	.	8cn\L	.	1d	.	2a\	.	2ff#\	.	1r	.	.	.	1dd	2ff#\	1dd	2ff#\
8F#\	.	.	.	.	.	.	.	8F#\	.	.	.	.	.	.	.	.	.	.	.	.	.	.	.
8G\	.	.	.	.	.	.	.	8G\	.	.	.	.	.	.	.	.	.	.	.	.	.	.	.
8A\J	X	.	.	.	.	.	.	8A\J	.	.	.	.	.	.	.	.	.	.	.	.	.	.	.
[<2B\	6	.	.	8b\L	.	8gg\L	.	2B\	.	.	.	8b\L	.	8gg\L	.	.	.	.	.	.	4gg\	.	4gg\
!	!	!	!	!LO:SIC:v:o=8cc#\	!	!	!	!	!	!	!	!LO:SIC:v:o=8cc#\	!	!	!	!	!	!	!	!	!	!	!
.	.	.	.	8ccn\	.	8aa\	.	.	.	.	.	8ccn\	.	8aa\	.	.	.	.	.	.	.	.	.
.	.	.	.	8b\	.	8gg\	.	.	.	.	.	8b\	.	8gg\	.	.	.	.	.	.	4ff#\	.	4ff#\
.	5	.	.	8a\J	.	8ff#\J	.	.	.	.	.	8a\J	.	8ff#\J	.	.	.	.	.	.	.	.	.
!	!	!	!	!	!	!LO:LB:g=original	!	!LO:PB:g=original	!	!	!	!	!	!	!	!	!	!	!	!	!	!	!
=61	=61	=61	=61	=61	=61	=61	=61	=61	=61	=61	=61	=61	=61	=61	=61	=61	=61	=61	=61	=61	=61	=61	=61
!	!	!	!	!	!	!	!	!	!	!LO:SIC:o=1c#X	!	!	!	!	!	!	!	!	!	!	!	!	!
8B\L]	4_ r#2_	1c#X	.	2g/	.	2ee\	.	8B\L	.	1c#	.	2g\	.	2ee\	.	1r	.	0r	0r	1cc#	2ee\	1cc#X	2ee\
8E\	.	.	.	.	.	.	.	8E\	.	.	.	.	.	.	.	.	.	.	.	.	.	.	.
8F#\	.	.	.	.	.	.	.	8F#\	.	.	.	.	.	.	.	.	.	.	.	.	.	.	.
8G\J	X	.	.	.	.	.	.	8G\J	.	.	.	.	.	.	.	.	.	.	.	.	.	.	.
[<2A\	6	.	.	8a/L	.	8ff#\L	.	(2A\	.	.	.	8a\L	.	8ff#\L	.	.	.	.	.	.	4ff#\	.	4ff#\
.	.	.	.	8b/	.	8gg\	.	.	.	.	.	8b\	.	8gg\	.	.	.	.	.	.	.	.	.
.	.	.	.	8a/	.	8ff#\	.	.	.	.	.	8a\	.	8ff#\	.	.	.	.	.	.	4ee\	.	4ee\
.	5	.	.	8g/J	.	8ee\J	.	.	.	.	.	8g\J	.	8ee\J	.	.	.	.	.	.	.	.	.
!	!	!	!	!	!	!	!	!	!	!LO:LB:g=original	!	!	!	!	!	!	!	!	!	!	!	!	!
=62	=62	=62	=62	=62	=62	=62	=62	=62	=62	=62	=62	=62	=62	=62	=62	=62	=62	=62	=62	=62	=62	=62	=62
8A\L]	4_ 2_	1B	.	2f#/	.	2dd\	.	8A\L)	.	1B	.	2f#\	.	2dd\	.	1r	.	.	.	1b	2dd\	1b	2dd\
8D\	.	.	.	.	.	.	.	8D\	.	.	.	.	.	.	.	.	.	.	.	.	.	.	.
8E\	.	.	.	.	.	.	.	8E\	.	.	.	.	.	.	.	.	.	.	.	.	.	.	.
8F#\J	X	.	.	.	.	.	.	8F#\J	.	.	.	.	.	.	.	.	.	.	.	.	.	.	.
[<2G\	6	.	.	8g/L	.	8ee\L	.	(2G\	.	.	.	8g\L	.	8ee\L	.	.	.	.	.	.	4ee\	.	4ee\
.	.	.	.	8a/	.	8ff#\	.	.	.	.	.	8a\	.	8ff#\	.	.	.	.	.	.	.	.	.
.	.	.	.	8g/	.	8ee\	.	.	.	.	.	8g\	.	8ee\	.	.	.	.	.	.	4dd\	.	4dd\
.	5	.	.	8f#/J	.	8dd\J	.	.	.	.	.	8f#\J	.	8dd\J	.	.	.	.	.	.	.	.	.
!	!	!	!	!LO:LB:g=original	!	!	!	!	!	!	!	!	!	!LO:LB:g=original	!	!	!	!	!	!	!LO:LB:g=original	!	!
=63	=63	=63	=63	=63	=63	=63	=63	=63	=63	=63	=63	=63	=63	=63	=63	=63	=63	=63	=63	=63	=63	=63	=63
4G\]	4 2	4A/	.	4e/	.	4cc#\	.	4G\)	.	4A\	.	4e\	.	4cc#\	.	1r	.	1r	1r	4cc#\	4ee\	4cc#\	4ee\
4F#\	6	4B/	.	4f#/	.	2dd\	.	4F#\	.	2B\	.	4f#\	.	2dd\	.	.	.	.	.	2dd\	4ff#\	2dd\	4ff#\
2E\	7	4B/	.	2g/	.	.	.	2E\	.	.	.	2g\	.	.	.	.	.	.	.	.	2gg\	.	2gg\
.	6	4A/	.	.	.	4cc#\	.	.	.	4A\	.	.	.	4cc#\	.	.	.	.	.	4cc#\	.	4cc#\	.
=64	=64	=64	=64	=64	=64	=64	=64	=64	=64	=64	=64	=64	=64	=64	=64	=64	=64	=64	=64	=64	=64	=64	=64
8D\L	.	2A/	.	2f#/	.	2.dd\	.	4D\	-men	2A\	.	2f#\	.	4dd\	-men	4r	.	4r	4r	2.dd\	2ff#\	2.dd\	2ff#\
8D\	.	.	.	.	.	.	.	.	.	.	.	.	.	.	.	.	.	.	.	.	.	.	.
8E\	.	.	.	.	.	.	.	8E\L	a-	.	.	.	.	2dd\	a-	4D\	.	4d\	4f#\	.	.	.	.
8F#\J	.	.	.	.	.	.	.	8F#\J	.	.	.	.	.	.	.	.	.	.	.	.	.	.	.
8G\L	6 5	4B/	.	2e/	.	.	.	8G\L	.	4B\	.	2e\	.	.	.	4D\	.	4d\	2e\	.	2ee\	.	2ee\
8E\	.	.	.	.	.	.	.	8E\	.	.	.	.	.	.	.	.	.	.	.	.	.	.	.
8A\	3_	4A/	.	.	.	4cc#\	.	8A\	.	4A\	.	.	.	4cc#\	.	4AA/	.	4A/	.	4cc#\	.	4cc#\	.
8G\J	.	.	.	.	.	.	.	8G\J	.	.	.	.	.	.	.	.	.	.	.	.	.	.	.
!	!	!LO:LB:g=original	!	!	!	!	!	!	!	!	!	!LO:LB:g=original	!	!	!	!	!	!	!	!	!	!	!
=65	=65	=65	=65	=65	=65	=65	=65	=65	=65	=65	=65	=65	=65	=65	=65	=65	=65	=65	=65	=65	=65	=65	=65
8F#\L	6_	2A/	.	4.f#/	.	4.dd\	.	8F#\L	.	2A\	-men	4.f#\	.	4.dd\	.	4.D\	.	4.F#/	4.d\	4.dd\	4.ff#\	4.dd\	4.ff#\
8E\	.	.	.	.	.	.	.	8E\	.	.	.	.	.	.	.	.	.	.	.	.	.	.	.
8D\	.	.	.	.	.	.	.	8D\	.	.	.	.	.	.	.	.	.	.	.	.	.	.	.
8C#\J	6 5	.	.	8g/	.	8ee\	.	8C#\J	.	.	.	8g\	.	8ee\	.	8AA/	.	8A/	8e\	8ee\	8gg\	8ee\	8gg\
4.D\	.	2A/	.	8a/L	.	8ff#\L	.	4.D\	.	2A\	a-	8a\L	.	8ff#\L	.	4D\	.	4d\	4f#\	8ff#\L	8aa\L	8ff#\L	8aa\L
.	.	.	.	8g/	.	8ee\J	.	.	.	.	.	8g\	.	8ee\J	.	.	.	.	.	8ee\	8gg\J	8ee\	8gg\J
.	.	.	.	8f#/	.	4dd\	.	.	.	.	.	8f#\	.	4dd\	.	4D\	.	4d\	4f#\	8dd\	4ff#\	8dd\	4ff#\
8F#\	6	.	.	8a/J	.	.	.	8F#\	.	.	.	8a\J	.	.	.	.	.	.	.	8a\J	.	8a\J	.
!LO:LB:g=original	!	!	!	!	!	!	!	!	!	!	!	!	!	!	!	!LO:LB:g=original	!	!	!	!	!	!	!
=66	=66	=66	=66	=66	=66	=66	=66	=66	=66	=66	=66	=66	=66	=66	=66	=66	=66	=66	=66	=66	=66	=66	=66
4G\	6	4B/	.	4b\	.	4.ee\	.	4G\	.	4B\	.	4b\	.	2ee\	.	4AA/	.	4e\	4g\	4b\	2ee\	4b\	2ee\
4A\	.	4A/	.	4cc#\	.	.	.	4A\	.	4A\	.	4cc#\	.	.	.	4AA/	.	4A/	4e\	4cc#\	.	4cc#\	.
.	.	.	.	.	.	16dd\LL	.	.	.	.	.	.	.	.	.	.	.	.	.	.	.	.	.
.	.	.	.	.	.	16ee\JJ	.	.	.	.	.	.	.	.	.	.	.	.	.	.	.	.	.
4D\	.	4A/	.	4dd\	.	8ff#\L	.	4D\	-men	4A\	-men	4dd\	.	4ff#\	.	4D\	.	4F#/	4d\	4dd\	2ff#\	4dd\	2ff#\
.	.	.	.	.	.	16gg\L	.	.	.	.	.	.	.	.	.	.	.	.	.	.	.	.	.
.	.	.	.	.	.	16ff#\JJ	.	.	.	.	.	.	.	.	.	.	.	.	.	.	.	.	.
4d\	.	4d\	.	4a/	.	8ee\L	.	4d\	a-	4d\	a-	4a\	.	8ee\L	.	4D\	.	4d\	4f#\	4a\	.	4a\	.
.	.	.	.	.	.	8ff#\J	.	.	.	.	.	.	.	8ff#\J	.	.	.	.	.	.	.	.	.
=67	=67	=67	=67	=67	=67	=67	=67	=67	=67	=67	=67	=67	=67	=67	=67	=67	=67	=67	=67	=67	=67	=67	=67
4d\	r#4 2	2e\	.	4b\	.	8gg#X\L	.	4d\	.	2e\	.	4b\	.	8gg#X\L	.	4AA/	.	4e\	4g#X\	4b\	4gg#\	4b\	4gg#X\
.	.	.	.	.	.	8ee\J	.	.	.	.	.	.	.	8ee\J	.	.	.	.	.	.	.	.	.
4c#\	6	.	.	4cc#\	.	2aa\	.	4c#\	.	.	.	4cc#\	.	2aa\	.	4AA/	.	4A/	2a\	4cc#\	2aa\	4cc#\	2aa\
2B\	7	4f#\	.	2dd\	.	.	.	2B\	.	4f#\	.	2dd\	.	.	.	4D\	.	4f#\	.	2dd\	.	2dd\	.
.	6	4e\	.	.	.	4gg#\	.	.	.	4e\	.	.	.	4gg#\	.	4AA/	.	4e\	4g#\	.	4gg#\	.	4gg#\
!	!	!	!	!	!	!	!	!LO:LB:g=original	!	!	!	!	!	!	!	!	!	!	!	!	!	!	!LO:LB:g=original
=68	=68	=68	=68	=68	=68	=68	=68	=68	=68	=68	=68	=68	=68	=68	=68	=68	=68	=68	=68	=68	=68	=68	=68
!	!	!LO:TX:t=P:problem=mixed beam	!	!	!	!	!	!	!	!	!	!	!	!	!	!	!	!	!	!	!	!	!
[1A	.	8e\L	.	4cc#\	.	4aa\	.	1A	.	8e\	-men	4cc#\	-men	4aa\	-men	4AA/	.	4A/	4a\	4cc#\	4aa\	4cc#\	4aa\
.	.	8A/	.	.	.	.	.	.	.	8A\L	a-	.	.	.	.	.	.	.	.	.	.	.	.
.	.	8B/	.	2a/	.	4cc#\	.	.	.	8B\	.	2a\	a-	4cc#\	a-	4r	.	4r	4r	4r	4r	4r	4r
.	.	8c#/J	.	.	.	.	.	.	.	8c#\J	.	.	.	.	.	.	.	.	.	.	.	.	.
.	.	8d\L	.	.	.	2b\	.	.	.	8d\L	.	.	.	2b\	.	2r	.	2r	2r	2r	2r	2r	2r
.	.	8B\	.	.	.	.	.	.	.	8B\	.	.	.	.	.	.	.	.	.	.	.	.	.
.	.	8e\	.	4g#X/	.	.	.	.	.	8e\	.	4g#X\	.	.	.	.	.	.	.	.	.	.	.
.	.	8d\J	.	.	.	.	.	.	.	8d\J	.	.	.	.	.	.	.	.	.	.	.	.	.
!	!	!	!	!	!	!LO:LB:g=original	!	!	!	!	!	!	!	!LO:PB:g=original	!	!	!	!	!	!LO:LB:g=original	!	!	!
=69	=69	=69	=69	=69	=69	=69	=69	=69	=69	=69	=69	=69	=69	=69	=69	=69	=69	=69	=69	=69	=69	=69	=69
!	!	!	!	!	!	!	!	!	!	!	!	!	!	!	!	!LO:TX:a:t=2.:mod=	!	!	!	!	!	!	!
1A_	.	8c#/L	.	4.a/	.	4.cc#\	.	1A	.	8c#\L	.	4.a\	.	4.cc#\	.	0r	.	0r	0r	1r	1r	1r	1r
.	.	8B/	.	.	.	.	.	.	.	8B\	.	.	.	.	.	.	.	.	.	.	.	.	.
.	.	8A/	.	.	.	.	.	.	.	8A\	.	.	.	.	.	.	.	.	.	.	.	.	.
.	.	8G#X/J	.	8b\	.	8dd\	.	.	.	8G#X\J	.	8b\	.	8dd\	.	.	.	.	.	.	.	.	.
.	.	4.A/	.	8cc#\L	.	8ee\L	.	.	.	4.A\	.	8cc#\L	.	8ee\L	.	.	.	.	.	.	.	.	.
.	.	.	.	8b\J	.	8dd\	.	.	.	.	.	8b\J	.	8dd\	.	.	.	.	.	.	.	.	.
.	.	.	.	4a/	.	8cc#\	.	.	.	.	.	4a\	.	8cc#\	.	.	.	.	.	.	.	.	.
.	.	8c#/	.	.	.	8ee\J	.	.	.	8c#\	.	.	.	8ee\J	.	.	.	.	.	.	.	.	.
!	!	!	!	!	!	!	!	!	!	!LO:LB:g=original	!	!	!	!	!	!	!	!	!	!	!	!LO:LB:g=original	!
=70	=70	=70	=70	=70	=70	=70	=70	=70	=70	=70	=70	=70	=70	=70	=70	=70	=70	=70	=70	=70	=70	=70	=70
1A_	.	4d\	.	2b\	.	4ff#\	.	1A	.	4d\	.	2b\	.	4ff#\	.	.	.	.	.	2r	2r	2r	2r
.	.	4e\	.	.	.	4gg#X\	.	.	.	4e\	.	.	.	4gg#X\	.	.	.	.	.	.	.	.	.
.	.	4A/	.	4cc#\	.	8aa\L	.	.	.	4A\	-men	4cc#\	.	4aa\	.	.	.	.	.	8r	8r	8r	8r
.	.	.	.	.	.	16gg#\L	.	.	.	.	.	.	.	.	.	.	.	.	.	8cc# 8a\	8aa\	8cc#\	8aa\
.	.	.	.	.	.	16aa\JJ	.	.	.	.	.	.	.	.	.	.	.	.	.	.	.	.	.
.	.	4e\	.	4dd\	.	8bb\L	.	.	.	4e\	a-	4dd\	.	4gg#\	.	.	.	.	.	4dd 4b\	4gg#\	4dd\	4bb\
.	.	.	.	.	.	8gg#\J	.	.	.	.	.	.	.	.	.	.	.	.	.	.	.	.	.
!	!	!	!	!LO:LB:g=original	!	!	!	!	!	!	!	!	!	!	!	!	!	!	!	!	!LO:LB:g=original	!	!
=71	=71	=71	=71	=71	=71	=71	=71	=71	=71	=71	=71	=71	=71	=71	=71	=71	=71	=71	=71	=71	=71	=71	=71
*	*	*	*	*	*	*	*	*	*	*	*	*	*	*	*	*tremolo	*	*	*	*	*	*	*
1A_	.	1f#	.	8cc#\L	.	2aa\	.	1A	.	1f#	.	8cc#\L	.	2aa\	.	16AALL	.	1A	1A	2cc#\	1aa	2cc#\	1aa
.	.	.	.	.	.	.	.	.	.	.	.	.	.	.	.	16AA	.	.	.	.	.	.	.
.	.	.	.	8a\	.	.	.	.	.	.	.	8a\	.	.	.	16AA	.	.	.	.	.	.	.
.	.	.	.	.	.	.	.	.	.	.	.	.	.	.	.	16AA	.	.	.	.	.	.	.
.	.	.	.	8dd\	.	.	.	.	.	.	.	8dd\	.	.	.	16AA	.	.	.	.	.	.	.
.	.	.	.	.	.	.	.	.	.	.	.	.	.	.	.	16AA	.	.	.	.	.	.	.
.	.	.	.	8cc#\J	.	.	.	.	.	.	.	8cc#\J	.	.	.	16AA	.	.	.	.	.	.	.
.	.	.	.	.	.	.	.	.	.	.	.	.	.	.	.	16AA	.	.	.	.	.	.	.
.	.	.	.	2b\	.	8aa\L	.	.	.	.	.	2b\	.	8aa\L	.	16AA	.	.	.	2b\	.	2b\	.
.	.	.	.	.	.	.	.	.	.	.	.	.	.	.	.	16AA	.	.	.	.	.	.	.
.	.	.	.	.	.	8ff#\	.	.	.	.	.	.	.	8ff#\	.	16AA	.	.	.	.	.	.	.
.	.	.	.	.	.	.	.	.	.	.	.	.	.	.	.	16AA	.	.	.	.	.	.	.
.	.	.	.	.	.	8bb\	.	.	.	.	.	.	.	8bb\	.	16AA	.	.	.	.	.	.	.
.	.	.	.	.	.	.	.	.	.	.	.	.	.	.	.	16AA	.	.	.	.	.	.	.
.	.	.	.	.	.	8aa\J	.	.	.	.	.	.	.	8aa\J	.	16AA	.	.	.	.	.	.	.
.	.	.	.	.	.	.	.	.	.	.	.	.	.	.	.	16AAJJ	.	.	.	.	.	.	.
!	!	!LO:LB:g=original	!	!	!	!	!	!	!	!	!	!LO:LB:g=original	!	!	!	!	!	!	!	!	!	!	!
=72	=72	=72	=72	=72	=72	=72	=72	=72	=72	=72	=72	=72	=72	=72	=72	=72	=72	=72	=72	=72	=72	=72	=72
!	!	!	!	!	!	!LO:SIC:o=2ggn\	!	!	!	!	!	!	!	!LO:SIC:o=2ggn\	!	!	!	!	!	!	!LO:SIC:o=1ggnX	!	!LO:SIC:o=1ggn
1A_	.	1e	.	8b/L	.	2gg	.	1A	.	1e	.	8b\L	.	2gg	.	16AALL	.	1A	1A	2b\	1gg	2b\	1gg
.	.	.	.	.	.	.	.	.	.	.	.	.	.	.	.	16AA	.	.	.	.	.	.	.
.	.	.	.	8g/	.	.	.	.	.	.	.	8g\	.	.	.	16AA	.	.	.	.	.	.	.
.	.	.	.	.	.	.	.	.	.	.	.	.	.	.	.	16AA	.	.	.	.	.	.	.
.	.	.	.	8cc#/	.	.	.	.	.	.	.	8cc#\	.	.	.	16AA	.	.	.	.	.	.	.
.	.	.	.	.	.	.	.	.	.	.	.	.	.	.	.	16AA	.	.	.	.	.	.	.
.	.	.	.	8b/J	.	.	.	.	.	.	.	8b\J	.	.	.	16AA	.	.	.	.	.	.	.
.	.	.	.	.	.	.	.	.	.	.	.	.	.	.	.	16AA	.	.	.	.	.	.	.
.	.	.	.	2a/	.	8gg\L	.	.	.	.	.	2a\	.	8gg\L	.	16AA	.	.	.	2a\	.	2a/	.
.	.	.	.	.	.	.	.	.	.	.	.	.	.	.	.	16AA	.	.	.	.	.	.	.
.	.	.	.	.	.	8ee\	.	.	.	.	.	.	.	8ee\	.	16AA	.	.	.	.	.	.	.
.	.	.	.	.	.	.	.	.	.	.	.	.	.	.	.	16AA	.	.	.	.	.	.	.
.	.	.	.	.	.	8aa\	.	.	.	.	.	.	.	8aa\	.	16AA	.	.	.	.	.	.	.
.	.	.	.	.	.	.	.	.	.	.	.	.	.	.	.	16AA	.	.	.	.	.	.	.
.	.	.	.	.	.	8gg\J	.	.	.	.	.	.	.	8gg\J	.	16AA	.	.	.	.	.	.	.
.	.	.	.	.	.	.	.	.	.	.	.	.	.	.	.	16AAJJ	.	.	.	.	.	.	.
!	!	!	!	!	!	!	!	!	!	!	!	!	!	!	!	!	!	!LO:LB:g=original	!LO:LB:g=original	!	!	!	!
=73	=73	=73	=73	=73	=73	=73	=73	=73	=73	=73	=73	=73	=73	=73	=73	=73	=73	=73	=73	=73	=73	=73	=73
1A_	.	1d	.	8a/L	.	2ff#\	.	1A	.	1d	.	8a\L	.	2ff#\	.	16AALL	.	1A	1A	2a\	1ff#	2a/	1ff#
.	.	.	.	.	.	.	.	.	.	.	.	.	.	.	.	16AA	.	.	.	.	.	.	.
.	.	.	.	8f#/	.	.	.	.	.	.	.	8f#\	.	.	.	16AA	.	.	.	.	.	.	.
.	.	.	.	.	.	.	.	.	.	.	.	.	.	.	.	16AA	.	.	.	.	.	.	.
.	.	.	.	8b/	.	.	.	.	.	.	.	8b\	.	.	.	16AA	.	.	.	.	.	.	.
.	.	.	.	.	.	.	.	.	.	.	.	.	.	.	.	16AA	.	.	.	.	.	.	.
.	.	.	.	8a/J	.	.	.	.	.	.	.	8a\J	.	.	.	16AA	.	.	.	.	.	.	.
.	.	.	.	.	.	.	.	.	.	.	.	.	.	.	.	16AA	.	.	.	.	.	.	.
.	.	.	.	2g/	.	8ff#\L	.	.	.	.	.	2g\	.	8ff#\L	.	16AA	.	.	.	2g\	.	2g/	.
.	.	.	.	.	.	.	.	.	.	.	.	.	.	.	.	16AA	.	.	.	.	.	.	.
.	.	.	.	.	.	8dd\	.	.	.	.	.	.	.	8dd\	.	16AA	.	.	.	.	.	.	.
.	.	.	.	.	.	.	.	.	.	.	.	.	.	.	.	16AA	.	.	.	.	.	.	.
.	.	.	.	.	.	8gg\	.	.	.	.	.	.	.	8gg\	.	16AA	.	.	.	.	.	.	.
.	.	.	.	.	.	.	.	.	.	.	.	.	.	.	.	16AA	.	.	.	.	.	.	.
.	.	.	.	.	.	8ff#\J	.	.	.	.	.	.	.	8ff#\J	.	16AA	.	.	.	.	.	.	.
.	.	.	.	.	.	.	.	.	.	.	.	.	.	.	.	16AAJJ	.	.	.	.	.	.	.
=74	=74	=74	=74	=74	=74	=74	=74	=74	=74	=74	=74	=74	=74	=74	=74	=74	=74	=74	=74	=74	=74	=74	=74
!	!	!	!	!	!	!	!	!	!	!	!	!	!	!	!	!LO:TX:t=P:problem=takty nr 74-75 oznaczone znakiem repetycji	!	!	!	!	!	!	!
1A_	.	1c#	.	8g/L	.	2ee\	.	1A	.	1c#	.	8g\L	.	2ee\	.	16AALLyy	.	1A	1A	2g\	1ee	2g/	1ee
.	.	.	.	.	.	.	.	.	.	.	.	.	.	.	.	16AAyy	.	.	.	.	.	.	.
.	.	.	.	8e/	.	.	.	.	.	.	.	8e\	.	.	.	16AAyy	.	.	.	.	.	.	.
.	.	.	.	.	.	.	.	.	.	.	.	.	.	.	.	16AAyy	.	.	.	.	.	.	.
.	.	.	.	8a/	.	.	.	.	.	.	.	8a\	.	.	.	16AAyy	.	.	.	.	.	.	.
.	.	.	.	.	.	.	.	.	.	.	.	.	.	.	.	16AAyy	.	.	.	.	.	.	.
.	.	.	.	8g/J	.	.	.	.	.	.	.	8g\J	.	.	.	16AAyy	.	.	.	.	.	.	.
.	.	.	.	.	.	.	.	.	.	.	.	.	.	.	.	16AAyy	.	.	.	.	.	.	.
.	.	.	.	2f#/	.	8ee\L	.	.	.	.	.	2f#\	.	8ee\L	.	16AAyy	.	.	.	2f#/	.	2f#/	.
.	.	.	.	.	.	.	.	.	.	.	.	.	.	.	.	16AAyy	.	.	.	.	.	.	.
.	.	.	.	.	.	8cc#\	.	.	.	.	.	.	.	8cc#\	.	16AAyy	.	.	.	.	.	.	.
.	.	.	.	.	.	.	.	.	.	.	.	.	.	.	.	16AAyy	.	.	.	.	.	.	.
.	.	.	.	.	.	8ff#\	.	.	.	.	.	.	.	8ff#\	.	16AAyy	.	.	.	.	.	.	.
.	.	.	.	.	.	.	.	.	.	.	.	.	.	.	.	16AAyy	.	.	.	.	.	.	.
.	.	.	.	.	.	8ee\J	.	.	.	.	.	.	.	8ee\J	.	16AAyy	.	.	.	.	.	.	.
.	.	.	.	.	.	.	.	.	.	.	.	.	.	.	.	16AAJJyy	.	.	.	.	.	.	.
!	!	!	!	!	!	!	!	!	!	!	!	!	!	!LO:LB:g=original	!	!	!	!	!	!	!	!	!
=75	=75	=75	=75	=75	=75	=75	=75	=75	=75	=75	=75	=75	=75	=75	=75	=75	=75	=75	=75	=75	=75	=75	=75
1A_	.	4d\	.	4f#/	.	8dd\L	.	1A	.	1A	.	4f#\	.	4dd\	.	16AALLyy	.	1A	1A	4dd\	4ff#\	4dd\	4ff#\
.	.	.	.	.	.	.	.	.	.	.	.	.	.	.	.	16AAyy	.	.	.	.	.	.	.
.	.	.	.	.	.	16cc#\L	.	.	.	.	.	.	.	.	.	16AAyy	.	.	.	.	.	.	.
.	.	.	.	.	.	16dd\JJ	.	.	.	.	.	.	.	.	.	16AAyy	.	.	.	.	.	.	.
.	.	4e\	.	8g/L	.	8ee\L	.	.	.	.	.	4e\	.	4cc#\	.	16AAyy	.	.	.	4ee\	4gg\	4ee\	4gg\
.	.	.	.	.	.	.	.	.	.	.	.	.	.	.	.	16AAyy	.	.	.	.	.	.	.
.	.	.	.	8e/J	.	8cc#\J	.	.	.	.	.	.	.	.	.	16AAyy	.	.	.	.	.	.	.
.	.	.	.	.	.	.	.	.	.	.	.	.	.	.	.	16AAyy	.	.	.	.	.	.	.
.	.	4d\	.	8f#/L	.	8dd\L	.	.	.	.	.	2f#\	.	2dd\	.	16AAyy	.	.	.	2dd\	2ff#\	2dd\	2ff#\
.	.	.	.	.	.	.	.	.	.	.	.	.	.	.	.	16AAyy	.	.	.	.	.	.	.
.	.	.	.	8a/	.	8ff#\	.	.	.	.	.	.	.	.	.	16AAyy	.	.	.	.	.	.	.
.	.	.	.	.	.	.	.	.	.	.	.	.	.	.	.	16AAyy	.	.	.	.	.	.	.
.	.	4d\	.	8g/	.	8ee\	.	.	.	.	.	.	.	.	.	16AAyy	.	.	.	.	.	.	.
.	.	.	.	.	.	.	.	.	.	.	.	.	.	.	.	16AAyy	.	.	.	.	.	.	.
.	.	.	.	8f#/J	.	8dd\J	.	.	.	.	.	.	.	.	.	16AAyy	.	.	.	.	.	.	.
.	.	.	.	.	.	.	.	.	.	.	.	.	.	.	.	16AAJJyy	.	.	.	.	.	.	.
!	!	!	!	!	!	!LO:LB:g=original	!	!	!	!	!	!	!	!	!	!	!	!	!	!	!	!	!
=76	=76	=76	=76	=76	=76	=76	=76	=76	=76	=76	=76	=76	=76	=76	=76	=76	=76	=76	=76	=76	=76	=76	=76
!	!	!	!	!	!	!LO:SIC:o=2cc#\	!	!	!	!	!	!	!	!	!	!	!	!	!	!	!	!	!
2A;\]	.	2c#;\	.	2e;/	.	2cc#;	.	2A;\	-men	2A;\	-men	2e;\	-men	2cc#;\	-men	16AA/LL	.	2A;/	2A;/	2cc#;\	2ee;\	2cc#;\	2ee;\
.	.	.	.	.	.	.	.	.	.	.	.	.	.	.	.	16AA/	.	.	.	.	.	.	.
.	.	.	.	.	.	.	.	.	.	.	.	.	.	.	.	16AA/	.	.	.	.	.	.	.
.	.	.	.	.	.	.	.	.	.	.	.	.	.	.	.	16AA/	.	.	.	.	.	.	.
.	.	.	.	.	.	.	.	.	.	.	.	.	.	.	.	16AA/	.	.	.	.	.	.	.
.	.	.	.	.	.	.	.	.	.	.	.	.	.	.	.	16AA/	.	.	.	.	.	.	.
.	.	.	.	.	.	.	.	.	.	.	.	.	.	.	.	16AA/	.	.	.	.	.	.	.
.	.	.	.	.	.	.	.	.	.	.	.	.	.	.	.	16AA/JJ	.	.	.	.	.	.	.
*	*	*	*	*	*	*	*	*	*	*	*	*	*	*	*	*Xtremolo	*	*	*	*	*	*	*
!	!	!	!	!	!	!LO:SIC:o=2r;	!	!	!	!	!	!	!	!	!	!	!	!	!	!	!	!	!
2r	.	2r	.	2r	.	2r	.	2r	.	2r	.	2r	.	2r	.	2r	.	2r	2r	2r	2r	2r	2r
=77	=77	=77	=77	=77	=77	=77	=77	=77	=77	=77	=77	=77	=77	=77	=77	=77	=77	=77	=77	=77	=77	=77	=77
!	!	!	!	!	!	!	!	!	!	!	!	!	!	!	!	!LO:TX:a:t=9.:mod=	!	!	!	!	!	!	!
!	!	!LO:TX:a:i:t=Solo&colon;:mod=	!	!LO:TX:a:i:t=Solo&colon;:mod=	!	!LO:TX:a:i:t=Solo&colon;:mod=	!	!	!	!	!	!	!	!	!	!LO:TX:b:t=9.:mod=	!	!	!	!	!	!	!
00r	.	4a\	.	4cc#|\	.	(4.aa\	.	00r	.	00r	.	00r	.	00r	.	1r	.	00r	00r	00r	00r	00r	00r
.	.	(8a\L	.	(8cc#\L	.	.	.	.	.	.	.	.	.	.	.	.	.	.	.	.	.	.	.
!	!	!LO:SIC:o=8gn\J)	!	!	!	!	!	!	!	!	!	!	!	!	!	!	!	!	!	!	!	!	!
.	.	8gJ)	.	8b\J)	.	16ccc#\LL	.	.	.	.	.	.	.	.	.	.	.	.	.	.	.	.	.
.	.	.	.	.	.	16bb\JJ)	.	.	.	.	.	.	.	.	.	.	.	.	.	.	.	.	.
.	.	4f#|\	.	4a|/	.	4aa|\	.	.	.	.	.	.	.	.	.	.	.	.	.	.	.	.	.
.	.	(8f#\L	.	(8a/L	.	8r	.	.	.	.	.	.	.	.	.	.	.	.	.	.	.	.	.
.	.	8e\J)	.	8g/J)	.	8aa\	.	.	.	.	.	.	.	.	.	.	.	.	.	.	.	.	.
=78	=78	=78	=78	=78	=78	=78	=78	=78	=78	=78	=78	=78	=78	=78	=78	=78	=78	=78	=78	=78	=78	=78	=78
.	.	(4.d#X\	.	(4.f#/	.	(8aa#X\L	.	.	.	.	.	.	.	.	.	1r	.	.	.	.	.	.	.
.	.	.	.	.	.	8bb\)	.	.	.	.	.	.	.	.	.	.	.	.	.	.	.	.	.
.	.	.	.	.	.	(8bb\	.	.	.	.	.	.	.	.	.	.	.	.	.	.	.	.	.
.	.	16c#\LL	.	16e/LL	.	8aan\J)	.	.	.	.	.	.	.	.	.	.	.	.	.	.	.	.	.
.	.	16d#\JJ)	.	16f#/JJ)	.	.	.	.	.	.	.	.	.	.	.	.	.	.	.	.	.	.	.
!	!	!	!	!LO:LB:g=original	!	!	!	!	!	!	!	!	!	!	!	!	!	!	!	!	!	!	!
.	.	4e|\	.	4g|/	.	(8aa\L	.	.	.	.	.	.	.	.	.	.	.	.	.	.	.	.	.
.	.	.	.	.	.	8gg\)	.	.	.	.	.	.	.	.	.	.	.	.	.	.	.	.	.
.	.	4r	.	4r	.	(8gg\	.	.	.	.	.	.	.	.	.	.	.	.	.	.	.	.	.
.	.	.	.	.	.	8ff#\J)	.	.	.	.	.	.	.	.	.	.	.	.	.	.	.	.	.
=79	=79	=79	=79	=79	=79	=79	=79	=79	=79	=79	=79	=79	=79	=79	=79	=79	=79	=79	=79	=79	=79	=79	=79
.	.	4g|\	.	4b|/	.	(4.gg\	.	.	.	.	.	.	.	.	.	1r	.	.	.	.	.	.	.
.	.	(8g\L	.	(8b/L	.	.	.	.	.	.	.	.	.	.	.	.	.	.	.	.	.	.	.
.	.	8f#\J)	.	8a/J)	.	16bb\LL	.	.	.	.	.	.	.	.	.	.	.	.	.	.	.	.	.
.	.	.	.	.	.	16aa\JJ)	.	.	.	.	.	.	.	.	.	.	.	.	.	.	.	.	.
.	.	4e|\	.	4g|/	.	4gg|\	.	.	.	.	.	.	.	.	.	.	.	.	.	.	.	.	.
.	.	(8e\L	.	(8g/L	.	8r	.	.	.	.	.	.	.	.	.	.	.	.	.	.	.	.	.
!	!	!LO:SIC:o=8dn\J)	!	!	!	!	!	!	!	!	!	!	!	!	!	!	!	!	!	!	!	!	!
.	.	8dJ)	.	8f#/J)	.	8gg\	.	.	.	.	.	.	.	.	.	.	.	.	.	.	.	.	.
!	!	!LO:LB:g=original	!	!	!	!	!	!	!	!	!	!	!	!	!	!	!	!	!	!	!	!	!
=80	=80	=80	=80	=80	=80	=80	=80	=80	=80	=80	=80	=80	=80	=80	=80	=80	=80	=80	=80	=80	=80	=80	=80
.	.	(4.c#\	.	(4.e/	.	(8gg#X\L	.	.	.	.	.	.	.	.	.	1r	.	.	.	.	.	.	.
.	.	.	.	.	.	8aa\)	.	.	.	.	.	.	.	.	.	.	.	.	.	.	.	.	.
.	.	.	.	.	.	(8aa\	.	.	.	.	.	.	.	.	.	.	.	.	.	.	.	.	.
.	.	16B\LL	.	16d/LL	.	8ggn\J)	.	.	.	.	.	.	.	.	.	.	.	.	.	.	.	.	.
.	.	16c#\JJ)	.	16e/JJ)	.	.	.	.	.	.	.	.	.	.	.	.	.	.	.	.	.	.	.
.	.	4d|\	.	4f#/	.	(8gg\L	.	.	.	.	.	.	.	.	.	.	.	.	.	.	.	.	.
.	.	.	.	.	.	8ff#\)	.	.	.	.	.	.	.	.	.	.	.	.	.	.	.	.	.
.	.	4r	.	4r	.	(8ff#\	.	.	.	.	.	.	.	.	.	.	.	.	.	.	.	.	.
.	.	.	.	.	.	8aa\J)	.	.	.	.	.	.	.	.	.	.	.	.	.	.	.	.	.
=81	=81	=81	=81	=81	=81	=81	=81	=81	=81	=81	=81	=81	=81	=81	=81	=81	=81	=81	=81	=81	=81	=81	=81
00r	.	8g|\L	.	8b|/L	.	4.bb\	.	00r	.	00r	.	00r	.	00r	.	1r	.	00r	00r	00r	00r	00r	00r
.	.	8g|\	.	8b|/	.	.	.	.	.	.	.	.	.	.	.	.	.	.	.	.	.	.	.
.	.	8e|\	.	8g|/	.	.	.	.	.	.	.	.	.	.	.	.	.	.	.	.	.	.	.
.	.	8e|\J	.	8g|/J	.	8ccc#\	.	.	.	.	.	.	.	.	.	.	.	.	.	.	.	.	.
.	.	8f#|\L	.	8a|/L	.	8ddd\L	.	.	.	.	.	.	.	.	.	.	.	.	.	.	.	.	.
.	.	8f#|\	.	8a|/	.	8aa\J	.	.	.	.	.	.	.	.	.	.	.	.	.	.	.	.	.
.	.	8d|\	.	8f#|/	.	4aa\	.	.	.	.	.	.	.	.	.	.	.	.	.	.	.	.	.
.	.	8d|\J	.	8f#|/J	.	.	.	.	.	.	.	.	.	.	.	.	.	.	.	.	.	.	.
!	!	!	!	!	!	!LO:PB:g=original	!	!	!	!	!	!	!	!	!	!	!	!	!	!	!	!	!
=82	=82	=82	=82	=82	=82	=82	=82	=82	=82	=82	=82	=82	=82	=82	=82	=82	=82	=82	=82	=82	=82	=82	=82
.	.	8c#|/L	.	8e|/L	.	(4.gg\	.	.	.	.	.	.	.	.	.	1r	.	.	.	.	.	.	.
.	.	8c#|/	.	8e|/	.	.	.	.	.	.	.	.	.	.	.	.	.	.	.	.	.	.	.
.	.	8A|/	.	8c#|/	.	.	.	.	.	.	.	.	.	.	.	.	.	.	.	.	.	.	.
!	!	!	!	!	!	!LO:SIC:o=16aa\LL)	!	!	!	!	!	!	!	!	!	!	!	!	!	!	!	!	!
.	.	8A|/J	.	8c#|/J	.	16aaLL	.	.	.	.	.	.	.	.	.	.	.	.	.	.	.	.	.
!	!	!	!	!	!	!LO:SIC:o=16gg\JJ	!	!	!	!	!	!	!	!	!	!	!	!	!	!	!	!	!
.	.	.	.	.	.	16ggJJ)	.	.	.	.	.	.	.	.	.	.	.	.	.	.	.	.	.
.	.	8d|\L	.	8f#|/L	.	(8gg\L	.	.	.	.	.	.	.	.	.	.	.	.	.	.	.	.	.
.	.	8d|\	.	8f#|/	.	8ff#\)	.	.	.	.	.	.	.	.	.	.	.	.	.	.	.	.	.
.	.	8f#|\	.	8a|/	.	(8ff#\	.	.	.	.	.	.	.	.	.	.	.	.	.	.	.	.	.
.	.	8f#|\J	.	8a|/J	.	8aa\J)	.	.	.	.	.	.	.	.	.	.	.	.	.	.	.	.	.
=83	=83	=83	=83	=83	=83	=83	=83	=83	=83	=83	=83	=83	=83	=83	=83	=83	=83	=83	=83	=83	=83	=83	=83
.	.	8g|\L	.	8b|/L	.	(4.bb\	.	.	.	.	.	.	.	.	.	1r	.	.	.	.	.	.	.
.	.	8g|\	.	8b|/	.	.	.	.	.	.	.	.	.	.	.	.	.	.	.	.	.	.	.
.	.	8e|\	.	8g|/	.	.	.	.	.	.	.	.	.	.	.	.	.	.	.	.	.	.	.
.	.	8e|\J	.	8g|/J	.	8ccc#\)	.	.	.	.	.	.	.	.	.	.	.	.	.	.	.	.	.
.	.	8f#|\L	.	8a|/L	.	(4.ddd\	.	.	.	.	.	.	.	.	.	.	.	.	.	.	.	.	.
.	.	8f#|\	.	8a|/	.	.	.	.	.	.	.	.	.	.	.	.	.	.	.	.	.	.	.
.	.	8d|\	.	8f#|/	.	.	.	.	.	.	.	.	.	.	.	.	.	.	.	.	.	.	.
.	.	8d|\J	.	8f#|/J	.	8aa\)	.	.	.	.	.	.	.	.	.	.	.	.	.	.	.	.	.
=84	=84	=84	=84	=84	=84	=84	=84	=84	=84	=84	=84	=84	=84	=84	=84	=84	=84	=84	=84	=84	=84	=84	=84
.	.	8c#|\L	.	8e|/L	.	(8aa\L	.	.	.	.	.	.	.	.	.	1r	.	.	.	.	.	.	.
.	.	8c#|\	.	8e|/	.	8gg\)	.	.	.	.	.	.	.	.	.	.	.	.	.	.	.	.	.
.	.	8d|\	.	8a|/	.	(8gg\	.	.	.	.	.	.	.	.	.	.	.	.	.	.	.	.	.
.	.	8d|\J	.	8a|/J	.	8ff#\J)	.	.	.	.	.	.	.	.	.	.	.	.	.	.	.	.	.
!	!	!LO:TX:t=P:problem=mixed beam	!	!LO:LB:g=original	!	!	!	!	!	!	!	!	!	!	!	!	!	!	!	!	!	!	!
.	.	8a|>\L	.	4dd\	.	(8.ff#\L	.	.	.	.	.	.	.	.	.	.	.	.	.	.	.	.	.
.	.	8a|>\	.	.	.	.	.	.	.	.	.	.	.	.	.	.	.	.	.	.	.	.	.
.	.	.	.	.	.	32gg\LL	.	.	.	.	.	.	.	.	.	.	.	.	.	.	.	.	.
.	.	.	.	.	.	32ff#\JJJ)	.	.	.	.	.	.	.	.	.	.	.	.	.	.	.	.	.
.	.	8A|</	.	4cc#\	.	8ee\L	.	.	.	.	.	.	.	.	.	.	.	.	.	.	.	.	.
.	.	8A|</J	.	.	.	8a\J	.	.	.	.	.	.	.	.	.	.	.	.	.	.	.	.	.
=85	=85	=85	=85	=85	=85	=85	=85	=85	=85	=85	=85	=85	=85	=85	=85	=85	=85	=85	=85	=85	=85	=85	=85
!	!	!	!	!	!	!LO:TX:t=P:problem=mixed beam	!LO:DY:a:t=for meƶ&colon;:mod= 	!	!	!	!	!	!	!	!	!	!	!	!	!LO:TX:b:i:t=Verte Cito:mod=	!	!	!
1r	.	4d\	.	4f#/	.	16dd\LL	mf	1r	.	1r	.	1r	.	1r	.	1r	.	1r	1r	1r	1r	1r	1r
!	!	!	!	!	!	!	!LO:DY:t= :mod=%s	!	!	!	!	!	!	!	!	!	!	!	!	!	!	!	!
.	.	.	.	.	.	16d|/	mf	.	.	.	.	.	.	.	.	.	.	.	.	.	.	.	.
.	.	.	.	.	.	16e|/	.	.	.	.	.	.	.	.	.	.	.	.	.	.	.	.	.
.	.	.	.	.	.	16f#|/JJ	.	.	.	.	.	.	.	.	.	.	.	.	.	.	.	.	.
.	.	4r	.	4r	.	16g|\LL	.	.	.	.	.	.	.	.	.	.	.	.	.	.	.	.	.
.	.	.	.	.	.	16a|\	.	.	.	.	.	.	.	.	.	.	.	.	.	.	.	.	.
.	.	.	.	.	.	16b|\	.	.	.	.	.	.	.	.	.	.	.	.	.	.	.	.	.
.	.	.	.	.	.	16cc#|\JJ	.	.	.	.	.	.	.	.	.	.	.	.	.	.	.	.	.
.	.	2r	.	2r	.	16dd|\LL	.	.	.	.	.	.	.	.	.	.	.	.	.	.	.	.	.
.	.	.	.	.	.	16ee|\	.	.	.	.	.	.	.	.	.	.	.	.	.	.	.	.	.
.	.	.	.	.	.	16ff#|\	.	.	.	.	.	.	.	.	.	.	.	.	.	.	.	.	.
.	.	.	.	.	.	16gg|\JJ	.	.	.	.	.	.	.	.	.	.	.	.	.	.	.	.	.
.	.	.	.	.	.	16aa|\LL	.	.	.	.	.	.	.	.	.	.	.	.	.	.	.	.	.
.	.	.	.	.	.	16bb|\	.	.	.	.	.	.	.	.	.	.	.	.	.	.	.	.	.
.	.	.	.	.	.	16aa|\	.	.	.	.	.	.	.	.	.	.	.	.	.	.	.	.	.
.	.	.	.	.	.	16gg|\JJ	.	.	.	.	.	.	.	.	.	.	.	.	.	.	.	.	.
!	!	!LO:LB:g=original	!	!	!	!	!	!	!	!	!	!	!	!	!	!LO:PB:g=original	!	!	!	!LO:PB:g=original	!	!	!
=86	=86	=86	=86	=86	=86	=86	=86	=86	=86	=86	=86	=86	=86	=86	=86	=86	=86	=86	=86	=86	=86	=86	=86
!LO:TX:a:i:t=pleno:rj:mod=	!	!	!	!	!LO:DY:a:mod= 	!	!	!	!	!	!	!	!	!	!	!	!	!	!	!	!	!	!
8r	.	4r	.	4r	f	16ff#|\LL	.	8r	.	4r	.	4r	.	4r	.	4r	.	4r	4r	4r	4r	4r	4r
!	!	!	!	!	!	!LO:SIC:o=16ff#\	!	!	!	!	!	!	!	!	!	!	!	!	!	!	!	!	!
.	.	.	.	.	.	16ff#|	.	.	.	.	.	.	.	.	.	.	.	.	.	.	.	.	.
!LO:TX:a:t= :mod=Pleno	!	!	!	!	!	!LO:SIC:o=16ff#\	!	!	!	!	!	!	!	!	!	!	!	!	!	!	!	!	!
8D\L	.	.	.	.	.	16ff#|	.	8D\L	a-	.	.	.	.	.	.	.	.	.	.	.	.	.	.
!	!	!	!	!	!	!LO:SIC:o=16ff#\JJ	!	!	!	!	!	!	!	!	!	!	!	!	!	!	!	!	!
.	.	.	.	.	.	16ff#|JJ	.	.	.	.	.	.	.	.	.	.	.	.	.	.	.	.	.
!	!	!	!	!LO:MO:mod=*tremolo	!	!	!	!	!	!	!	!	!	!	!	!	!	!	!	!	!	!	!
*	*	*	*	*null	*	*tremolo	*	*	*	*	*	*	*	*	*	*	*	*	*	*	*	*	*
!	!	!	!LO:DY:a	!	!LO:DY:t= :mod=%s	!	!	!	!	!	!	!	!	!	!	!	!	!	!	!	!	!	!
8F#\	.	4a\	f	16dd\LL	f	16ff#\LL	.	8F#\	.	4A\	a-	4f#\	a-	2dd\	a-	4D\	.	4d\	4f#\	4dd\	4ff#\	2dd\	4ff#\
.	.	.	.	16dd\	.	16ff#\	.	.	.	.	.	.	.	.	.	.	.	.	.	.	.	.	.
8D\J	.	.	.	16dd\	.	16ff#\	.	8D\J	.	.	.	.	.	.	.	.	.	.	.	.	.	.	.
.	.	.	.	16dd\JJ	.	16ff#\JJ	.	.	.	.	.	.	.	.	.	.	.	.	.	.	.	.	.
!	!	!	!	!LO:MO:mod=*null:null	!	!	!	!	!	!	!	!	!	!	!	!	!	!	!	!	!	!	!
*	*	*	*	*tremolo	*	*	*	*	*	*	*	*	*	*	*	*	*	*	*	*	*	*	*
!LO:TX:t=P:problem=mixed beam	!	!	!	!	!	!	!	!LO:TX:t=P:problem=mixed beam	!	!	!	!	!	!	!	!	!	!	!	!	!	!	!
8G\L	6 5	4b\	.	16dd\LL	.	16ee\LL	.	8G\L	.	4B\	.	2e\	.	.	.	4D\	.	4d\	2e\	4dd\	2ee\	.	2ee\
.	.	.	.	16dd\	.	16ee\	.	.	.	.	.	.	.	.	.	.	.	.	.	.	.	.	.
8E\	.	.	.	16dd\	.	16ee\	.	8E\	.	.	.	.	.	.	.	.	.	.	.	.	.	.	.
.	.	.	.	16dd\JJ	.	16ee\JJ	.	.	.	.	.	.	.	.	.	.	.	.	.	.	.	.	.
8A\	3	4a\	.	16cc#\LL	.	16ee\LL	.	8A\	.	4A\	.	.	.	4cc#\	.	4AA/	.	4A/	.	4cc#\	.	4cc#\	.
.	.	.	.	16cc#\	.	16ee\	.	.	.	.	.	.	.	.	.	.	.	.	.	.	.	.	.
8AA/J	.	.	.	16cc#\	.	16ee\	.	8AA/J	.	.	.	.	.	.	.	.	.	.	.	.	.	.	.
.	.	.	.	16cc#\JJ	.	16ee\JJ	.	.	.	.	.	.	.	.	.	.	.	.	.	.	.	.	.
*	*	*	*	*Xtremolo	*	*Xtremolo	*	*	*	*	*	*	*	*	*	*	*	*	*	*	*	*	*
!LO:LB:g=original	!	!	!	!	!	!LO:LB:g=original	!	!	!	!	!	!	!	!	!	!	!	!	!	!	!	!	!LO:LB:g=original
=87	=87	=87	=87	=87	=87	=87	=87	=87	=87	=87	=87	=87	=87	=87	=87	=87	=87	=87	=87	=87	=87	=87	=87
!	!	!	!	!	!	!LO:TX:t=P:problem=mixed beam	!	!LO:SIC:o=4D|\	!	!	!	!	!	!	!	!	!	!	!	!	!	!	!
4D\	.	4a\	.	4dd\	.	16dd|\LL	.	4D	-men	4A\	-men	4f#\	-men	4dd\	-men	4D\	.	4F#/	4d\	4dd\	4ff#\	4dd\	4ff#\
.	.	.	.	.	.	16d|/	.	.	.	.	.	.	.	.	.	.	.	.	.	.	.	.	.
.	.	.	.	.	.	16e|/	.	.	.	.	.	.	.	.	.	.	.	.	.	.	.	.	.
.	.	.	.	.	.	16f#|/JJ	.	.	.	.	.	.	.	.	.	.	.	.	.	.	.	.	.
4r	.	4r	.	4r	.	16g|/LL	.	4r	.	4r	.	4r	.	4r	.	4r	.	4r	4r	4r	4r	4r	4r
.	.	.	.	.	.	16a|/	.	.	.	.	.	.	.	.	.	.	.	.	.	.	.	.	.
.	.	.	.	.	.	16b|/	.	.	.	.	.	.	.	.	.	.	.	.	.	.	.	.	.
.	.	.	.	.	.	16cc#|/JJ	.	.	.	.	.	.	.	.	.	.	.	.	.	.	.	.	.
2r	.	2r	.	2r	.	16dd|\LL	.	2r	.	2r	.	2r	.	2r	.	2r	.	2r	2r	2r	2r	2r	2r
.	.	.	.	.	.	16ee|\	.	.	.	.	.	.	.	.	.	.	.	.	.	.	.	.	.
.	.	.	.	.	.	16ff#|\	.	.	.	.	.	.	.	.	.	.	.	.	.	.	.	.	.
.	.	.	.	.	.	16gg|\JJ	.	.	.	.	.	.	.	.	.	.	.	.	.	.	.	.	.
.	.	.	.	.	.	16aa|\LL	.	.	.	.	.	.	.	.	.	.	.	.	.	.	.	.	.
.	.	.	.	.	.	16bb|\	.	.	.	.	.	.	.	.	.	.	.	.	.	.	.	.	.
.	.	.	.	.	.	16aa|\	.	.	.	.	.	.	.	.	.	.	.	.	.	.	.	.	.
.	.	.	.	.	.	16gg|\JJ	.	.	.	.	.	.	.	.	.	.	.	.	.	.	.	.	.
!	!	!	!	!	!	!	!	!	!	!	!	!	!	!	!	!	!	!	!	!	!	!LO:LB:g=original	!
=88	=88	=88	=88	=88	=88	=88	=88	=88	=88	=88	=88	=88	=88	=88	=88	=88	=88	=88	=88	=88	=88	=88	=88
8r	.	4r	.	4r	.	16ff#|\LL	.	8r	.	4r	.	4r	.	4r	.	4r	.	4r	4r	4r	4r	4r	4r
!	!	!	!	!	!	!LO:SIC:o=16ff#\	!	!	!	!	!	!	!	!	!	!	!	!	!	!	!	!	!
.	.	.	.	.	.	16ff#|	.	.	.	.	.	.	.	.	.	.	.	.	.	.	.	.	.
!	!	!	!	!	!	!LO:SIC:o=16ff#\	!	!	!	!	!	!	!	!	!	!	!	!	!	!	!	!	!
8D\L	.	.	.	.	.	16ff#|	.	8D\L	a-	.	.	.	.	.	.	.	.	.	.	.	.	.	.
!	!	!	!	!	!	!LO:SIC:o=16ff#\JJ	!	!	!	!	!	!	!	!	!	!	!	!	!	!	!	!	!
.	.	.	.	.	.	16ff#|JJ	.	.	.	.	.	.	.	.	.	.	.	.	.	.	.	.	.
*	*	*	*	*tremolo	*	*tremolo	*	*	*	*	*	*	*	*	*	*	*	*	*	*	*	*	*
8F#\	6	4a\	.	16dd\LL	.	16ff#\LL	.	8F#\	.	4A\	a-	4f#\	a-	2dd\	a-	4D\	.	4d\	4f#\	4dd\	4ff#\	2dd\	4ff#\
.	.	.	.	16dd\	.	16ff#\	.	.	.	.	.	.	.	.	.	.	.	.	.	.	.	.	.
8D\J	.	.	.	16dd\	.	16ff#\	.	8D\J	.	.	.	.	.	.	.	.	.	.	.	.	.	.	.
.	.	.	.	16dd\JJ	.	16ff#\JJ	.	.	.	.	.	.	.	.	.	.	.	.	.	.	.	.	.
!	!	!	!	!	!	!	!	!LO:LB:g=original	!	!	!	!	!	!	!	!	!	!	!	!	!	!	!
!LO:TX:t=P:problem=mixed beam	!	!	!	!	!	!	!	!LO:TX:t=P:problem=mixed beam	!	!LO:LB:g=original	!	!	!	!	!	!	!	!	!	!	!	!	!
8G\L	6 5	4b\	.	16dd\LL	.	16ee\LL	.	8G\L	.	4B\	.	2e\	.	.	.	4D\	.	4d\	2e\	4dd\	2ee\	.	2ee\
.	.	.	.	16dd\	.	16ee\	.	.	.	.	.	.	.	.	.	.	.	.	.	.	.	.	.
8E\	.	.	.	16dd\	.	16ee\	.	8E\	.	.	.	.	.	.	.	.	.	.	.	.	.	.	.
.	.	.	.	16dd\JJ	.	16ee\JJ	.	.	.	.	.	.	.	.	.	.	.	.	.	.	.	.	.
8A\	3	4a\	.	16cc#\LL	.	16ee\LL	.	8A\	.	4A\	.	.	.	4cc#\	.	4AA/	.	4A/	.	4cc#\	.	4cc#\	.
.	.	.	.	16cc#\	.	16ee\	.	.	.	.	.	.	.	.	.	.	.	.	.	.	.	.	.
8AA/J	.	.	.	16cc#\	.	16ee\	.	8AA/J	.	.	.	.	.	.	.	.	.	.	.	.	.	.	.
.	.	.	.	16cc#\JJ	.	16ee\JJ	.	.	.	.	.	.	.	.	.	.	.	.	.	.	.	.	.
*	*	*	*	*Xtremolo	*	*Xtremolo	*	*	*	*	*	*	*	*	*	*	*	*	*	*	*	*	*
!	!	!	!	!	!	!	!	!	!	!LO:LB:g=original	!	!	!	!	!	!	!	!	!	!	!	!	!
=89	=89	=89	=89	=89	=89	=89	=89	=89	=89	=89	=89	=89	=89	=89	=89	=89	=89	=89	=89	=89	=89	=89	=89
!	!	!	!	!LO:TX:t=P:problem=mixed beam	!	!	!	!	!	!	!	!	!	!	!	!	!	!	!	!	!	!	!
4D\	.	4a\	.	16dd\LL	.	16ff#\LL	.	4D\	-men	4A\	-men	4f#\	-men	4dd\	-men	4D\	.	4F#/	4d\	4dd\	4ff#\	4dd\	4ff#\
.	.	.	.	16d/	.	16dd\	.	.	.	.	.	.	.	.	.	.	.	.	.	.	.	.	.
.	.	.	.	16d/	.	16dd\	.	.	.	.	.	.	.	.	.	.	.	.	.	.	.	.	.
.	.	.	.	16d/JJ	.	16dd\JJ	.	.	.	.	.	.	.	.	.	.	.	.	.	.	.	.	.
*	*	*	*	*tremolo	*	*tremolo	*	*	*	*	*	*	*	*	*	*	*	*	*	*	*	*	*
!	!	!	!	!	!	!	!	!	!	!	!	!	!	!	!	!	!	!	!	!	!LO:LB:g=original	!	!
8r	.	8r	.	16d/LL	.	16dd\LL	.	8r	.	8r	.	8r	.	8r	.	8r	.	8r	8r	8r	8r	8r	8r
.	.	.	.	16d/	.	16dd\	.	.	.	.	.	.	.	.	.	.	.	.	.	.	.	.	.
8F#\	6	8a\	.	16d/	.	16dd\	.	8F#\	a-	8A\	a-	8f#\	a-	8dd\	a-	8D\	.	8d\	8f#\	8dd\	8ff#\	8dd\	8ff#\
.	.	.	.	16d/JJ	.	16dd\JJ	.	.	.	.	.	.	.	.	.	.	.	.	.	.	.	.	.
*	*	*	*	*Xtremolo	*	*Xtremolo	*	*	*	*	*	*	*	*	*	*	*	*	*	*	*	*	*
4G\	6 5	4b\	.	16e/LL	.	16ee\LL	.	4G\	.	4B\	.	2e\	.	4dd\	.	4D\	.	4d\	2e\	4dd\	2ee\	4dd\	2ee\
.	.	.	.	16e/	.	16ee\	.	.	.	.	.	.	.	.	.	.	.	.	.	.	.	.	.
.	.	.	.	16dd/	.	16ddd\	.	.	.	.	.	.	.	.	.	.	.	.	.	.	.	.	.
.	.	.	.	16dd/JJ	.	16ddd\JJ	.	.	.	.	.	.	.	.	.	.	.	.	.	.	.	.	.
4A\	.	4a\	.	16e/LL	.	16ee\LL	.	4A\	.	4A\	.	.	.	4cc#\	.	4AA/	.	4A/	.	4cc#\	.	4cc#\	.
.	.	.	.	16e/	.	16ee\	.	.	.	.	.	.	.	.	.	.	.	.	.	.	.	.	.
.	.	.	.	16cc#/	.	16ccc#\	.	.	.	.	.	.	.	.	.	.	.	.	.	.	.	.	.
.	.	.	.	16cc#/JJ	.	16ccc#\JJ	.	.	.	.	.	.	.	.	.	.	.	.	.	.	.	.	.
=90	=90	=90	=90	=90	=90	=90	=90	=90	=90	=90	=90	=90	=90	=90	=90	=90	=90	=90	=90	=90	=90	=90	=90
!	!	!	!	!LO:TX:t=P:problem=mixed beam	!	!	!	!	!	!	!	!	!	!	!	!	!	!	!	!	!	!	!
4B\	.	4b\	.	16dd\LL	.	16ddd\LL	.	4B\	-men	4B\	-men	4f#\	-men	4dd\	-men	4D\	.	4F#/	4d\	4dd\	4ff#\	4dd\	4ff#\
.	.	.	.	16d/	.	16dd\	.	.	.	.	.	.	.	.	.	.	.	.	.	.	.	.	.
.	.	.	.	16d/	.	16dd\	.	.	.	.	.	.	.	.	.	.	.	.	.	.	.	.	.
.	.	.	.	16d/JJ	.	16dd\JJ	.	.	.	.	.	.	.	.	.	.	.	.	.	.	.	.	.
*	*	*	*	*tremolo	*	*tremolo	*	*	*	*	*	*	*	*	*	*	*	*	*	*	*	*	*
!	!	!	!	!	!	!	!	!	!	!	!	!	!	!LO:LB:g=original	!	!	!	!	!	!	!	!	!
8r	.	8r	.	16d/LL	.	16dd\LL	.	8r	.	8r	.	8r	.	8r	.	8r	.	8r	8r	8r	8r	8r	8r
.	.	.	.	16d/	.	16dd\	.	.	.	.	.	.	.	.	.	.	.	.	.	.	.	.	.
8F#\	6	8a\	.	16d/	.	16dd\	.	8F#\	a-	8A\	a-	8f#\	a-	8dd\	a-	8D\	.	8d\	8f#\	8dd\	8ff#\	8dd\	8ff#\
.	.	.	.	16d/JJ	.	16dd\JJ	.	.	.	.	.	.	.	.	.	.	.	.	.	.	.	.	.
*	*	*	*	*Xtremolo	*	*Xtremolo	*	*	*	*	*	*	*	*	*	*	*	*	*	*	*	*	*
!	!	!	!	!LO:LB:g=original	!	!	!	!	!	!	!	!	!	!	!	!	!	!	!	!	!	!	!
4G\	6 5	4b\	.	16e/LL	.	16ee\LL	.	4G\	.	4B\	.	2e\	.	4dd\	.	4D\	.	4d\	2e\	4dd\	2ee\	4dd\	2ee\
.	.	.	.	16e/	.	16ee\	.	.	.	.	.	.	.	.	.	.	.	.	.	.	.	.	.
.	.	.	.	16dd/	.	16ddd\	.	.	.	.	.	.	.	.	.	.	.	.	.	.	.	.	.
.	.	.	.	16dd/JJ	.	16ddd\JJ	.	.	.	.	.	.	.	.	.	.	.	.	.	.	.	.	.
4A\	.	4a\	.	16e/LL	.	16ee\LL	.	4A\	.	4A\	.	.	.	4cc#\	.	4AA/	.	4A/	.	4cc#\	.	4cc#\	.
.	.	.	.	16e/	.	16ee\	.	.	.	.	.	.	.	.	.	.	.	.	.	.	.	.	.
.	.	.	.	16cc#/	.	16ccc#\	.	.	.	.	.	.	.	.	.	.	.	.	.	.	.	.	.
.	.	.	.	16cc#/JJ	.	16ccc#\JJ	.	.	.	.	.	.	.	.	.	.	.	.	.	.	.	.	.
!	!	!	!	!	!	!LO:LB:g=original	!	!	!	!	!	!	!	!	!	!	!	!LO:LB:g=original	!LO:LB:g=original	!	!	!	!
=91	=91	=91	=91	=91	=91	=91	=91	=91	=91	=91	=91	=91	=91	=91	=91	=91	=91	=91	=91	=91	=91	=91	=91
!	!	!	!	!LO:TX:t=P:problem=mixed beam	!	!	!	!	!	!	!	!	!	!	!	!	!	!	!	!	!	!	!
4D\	.	4a\	.	16dd\LL	.	16ddd\LL	.	4D\	-men	4A\	-men	4f#\	-men	4dd\	-men	4D\	.	4F#/	4d\	4dd\	4ff#\	4dd\	4ff#\
.	.	.	.	16d/	.	16dd\	.	.	.	.	.	.	.	.	.	.	.	.	.	.	.	.	.
.	.	.	.	16d/	.	16dd\	.	.	.	.	.	.	.	.	.	.	.	.	.	.	.	.	.
.	.	.	.	16d/JJ	.	16dd\JJ	.	.	.	.	.	.	.	.	.	.	.	.	.	.	.	.	.
*	*	*	*	*tremolo	*	*tremolo	*	*	*	*	*	*	*	*	*	*	*	*	*	*	*	*	*
8r	.	8r	.	16d/LL	.	16dd\LL	.	8r	.	8r	.	8r	.	8r	.	8r	.	8r	8r	8r	8r	8r	8r
.	.	.	.	16d/	.	16dd\	.	.	.	.	.	.	.	.	.	.	.	.	.	.	.	.	.
8F#\	6	8a\	.	16d/	.	16dd\	.	8F#\	a-	8A\	a-	8f#\	a-	8dd\	a-	8D\	.	8d\	8f#\	8dd\	8ff#\	8dd\	8ff#\
.	.	.	.	16d/JJ	.	16dd\JJ	.	.	.	.	.	.	.	.	.	.	.	.	.	.	.	.	.
*	*	*	*	*Xtremolo	*	*Xtremolo	*	*	*	*	*	*	*	*	*	*	*	*	*	*	*	*	*
4G\	6 5	4b\	.	16e/LL	.	16ee\LL	.	4G\	.	4B\	.	2e\	.	4dd\	.	4D\	.	4d\	2e\	4dd\	2ee\	4dd\	2ee\
.	.	.	.	16e/	.	16ee\	.	.	.	.	.	.	.	.	.	.	.	.	.	.	.	.	.
.	.	.	.	16dd/	.	16ddd\	.	.	.	.	.	.	.	.	.	.	.	.	.	.	.	.	.
.	.	.	.	16dd/JJ	.	16ddd\JJ	.	.	.	.	.	.	.	.	.	.	.	.	.	.	.	.	.
4A\	.	4a\	.	16e/LL	.	16ee\LL	.	4A\	.	4A\	.	.	.	4cc#\	.	4AA/	.	4A/	.	4cc#\	.	4cc#\	.
.	.	.	.	16e/	.	16ee\	.	.	.	.	.	.	.	.	.	.	.	.	.	.	.	.	.
.	.	.	.	16cc#/	.	16ccc#\	.	.	.	.	.	.	.	.	.	.	.	.	.	.	.	.	.
.	.	.	.	16cc#/JJ	.	16ccc#\JJ	.	.	.	.	.	.	.	.	.	.	.	.	.	.	.	.	.
!	!	!	!	!	!	!	!	!	!	!	!	!	!	!	!	!	!	!	!	!LO:LB:g=original	!	!	!
=92	=92	=92	=92	=92	=92	=92	=92	=92	=92	=92	=92	=92	=92	=92	=92	=92	=92	=92	=92	=92	=92	=92	=92
*	*	*	*	*tremolo	*	*tremolo	*	*	*	*	*	*	*	*	*	*	*	*	*	*	*	*	*
4B\	.	4b\	.	16dd\LL	.	16ddd\LL	.	4B\	.	2B\	.	4d\	-men	4dd\	-men	4D\	.	4d\	4f#\	4dd\	4ff#\	4dd\	4ff#\
.	.	.	.	16dd\	.	16ddd\	.	.	.	.	.	.	.	.	.	.	.	.	.	.	.	.	.
.	.	.	.	16dd\	.	16ddd\	.	.	.	.	.	.	.	.	.	.	.	.	.	.	.	.	.
.	.	.	.	16dd\JJ	.	16ddd\JJ	.	.	.	.	.	.	.	.	.	.	.	.	.	.	.	.	.
4G\	6 5	4b\	.	16ee\LL	.	16ddd\LL	.	4G\	.	.	.	(4e\	a-	2dd\	a-	4AA/	.	4e\	4g\	4ee\	4gg\	4ee\	4gg\
.	.	.	.	16ee\	.	16ddd\	.	.	.	.	.	.	.	.	.	.	.	.	.	.	.	.	.
.	.	.	.	16ee\	.	16ddd\	.	.	.	.	.	.	.	.	.	.	.	.	.	.	.	.	.
.	.	.	.	16ee\JJ	.	16ddd\JJ	.	.	.	.	.	.	.	.	.	.	.	.	.	.	.	.	.
4A\	4	4a\	.	16ff#\LL	.	16ddd\LL	.	4A\	.	2A\	.	4f#\	.	.	.	4D\	.	4d\	4f#\	4dd\	4ff#\	4dd\	4ff#\
.	.	.	.	16ff#\	.	16ddd\	.	.	.	.	.	.	.	.	.	.	.	.	.	.	.	.	.
.	.	.	.	16ff#\	.	16ddd\	.	.	.	.	.	.	.	.	.	.	.	.	.	.	.	.	.
.	.	.	.	16ff#\JJ	.	16ddd\JJ	.	.	.	.	.	.	.	.	.	.	.	.	.	.	.	.	.
4AA/	3	4a\	.	16ee\LL	.	16ccc#\LL	.	4AA/	.	.	.	4e\)	.	4cc#\	.	4AA/	.	4A/	4e\	4cc#\	4ee\	4cc#\	4ee\
.	.	.	.	16ee\	.	16ccc#\	.	.	.	.	.	.	.	.	.	.	.	.	.	.	.	.	.
.	.	.	.	16ee\	.	16ccc#\	.	.	.	.	.	.	.	.	.	.	.	.	.	.	.	.	.
.	.	.	.	16ee\JJ	.	16ccc#\JJ	.	.	.	.	.	.	.	.	.	.	.	.	.	.	.	.	.
*	*	*	*	*Xtremolo	*	*Xtremolo	*	*	*	*	*	*	*	*	*	*	*	*	*	*	*	*	*
!	!	!LO:LB:g=original	!	!	!	!	!	!	!	!	!	!	!	!	!	!	!	!	!	!	!	!	!
=93	=93	=93	=93	=93	=93	=93	=93	=93	=93	=93	=93	=93	=93	=93	=93	=93	=93	=93	=93	=93	=93	=93	=93
4D\	.	4a\	.	4ff# 4a 4d\	.	4ddd\	.	4D\	-men	4A\	-men	4f#\	-men	4dd\	-men	4D\	.	4F#/	4d\	4dd\	4ff#\	4dd\	4ff#\
4r	.	4r	.	4r	.	4r	.	4r	.	4r	.	4r	.	4r	.	4r	.	4r	4r	4r	4r	4r	4r
*	*	*	*	*	*	*	*	*	*	*	*ij	*	*ij	*	*	*	*	*	*	*	*	*	*
4AA/	.	4a\	.	4ee 4a\	.	4ccc# 4ee 4a\	.	4A\	a-	4c#\	a-	4a\	a-	4ee\	a-	4AA/	.	4A/	4e\	4cc#\	4ee\	4ee\	4gg\
4r	.	4r	.	4r	.	4r	.	4r	.	4r	.	4r	.	4r	.	4r	.	4r	4r	4r	4r	4r	4r
=94	=94	=94	=94	=94	=94	=94	=94	=94	=94	=94	=94	=94	=94	=94	=94	=94	=94	=94	=94	=94	=94	=94	=94
!	!	!	!	!	!	!	!	!	!LO:MO:mod=men.	!	!LO:MO:mod=men.	!	!LO:MO:mod=men.	!	!LO:MO:mod=men.	!	!	!	!	!	!	!	!
4DD/	.	4a\	.	4ff# 4a 4d\	.	4ddd 4ff# 4a\	.	4D\	-men	4d\	-men	4a\	-men	4ff#\	-men	4D\	.	4F#/	4d\	4dd\	4ff#\	4dd\	4ff#\
*	*	*	*	*	*	*	*	*	*	*	*Xij	*	*Xij	*	*	*	*	*	*	*	*	*	*
4r	.	4r	.	4r	.	4r	.	4r	.	4r	.	4r	.	4r	.	4r	.	4r	4r	4r	4r	4r	4r
2r	.	2r	.	2r	.	2r	.	2r	.	2r	.	2r	.	2r	.	2r	.	2r	2r	2r	2r	2r	2r
==	==	==	==	==	==	==	==	==	==	==	==	==	==	==	==	==	==	==	==	==	==	==	==
*-	*-	*-	*-	*-	*-	*-	*-	*-	*-	*-	*-	*-	*-	*-	*-	*-	*-	*-	*-	*-	*-	*-	*-
!!!system-decoration: [(g1)][(g2)]<s7>[(g3)][(g4)]<s15>
!!!RDF**kern: > = above
!!!RDF**kern: < = below
!!!RDF**kern: | = vertical stroke
!!LO:MO:ori
!!!RDF**dynam: f = "for:"
!!LO:MO:end
!!!filter-modern: shed -X dynam -e "s/:a/:A/LX" | shed -e "s/TX(.*):t=P:/tx$1:t=P:/LG" | shed -e "s/:rj/:RJ/L" | sic -sq | modori -m | autostem -r | tie -s | humtr -p | shed -e "s/yy//" | shed -k -e "s/([\(\)\[\]])[><]/$1/g"
!!!ENC: Marcin Jachim
!!!END: 2020-06-30
!!!EED: Andrzej Kubiczek
!!!EEV: 2021-11-20
!!!ENC-modern: Andrzej Kubiczek
!!!END-modern: 2022-07-12
